%
(Header)
(Generated by gcodetools from Inkscape.)
(Using default header. To add your own header create file "header" in the output dir.)
M3
(Header end.)
G21 (All units in mm)

(Start cutting path id: path508)
(Change tool to Laser Engraver)

G00 Z0.500000
G00 X156.365230 Y286.486800
M3 S90.0
G4 P1.0
G01 Z-0.125000 F500.0(Penetrate)
G01 X154.351560 Y282.625470 Z-0.125000 F500.000000
G02 X152.312493 Y278.779088 Z-0.125000 I-297.130088 J155.052692
G02 X147.326170 Y269.576640 Z-0.125000 I-1764.807319 J950.304244
G03 X120.771302 Y220.745629 Z-0.125000 I22290.089618 J-12153.245282
G03 X96.287109 Y175.477030 Z-0.125000 I19132.050996 J-10377.108226
G02 X91.916607 Y167.395386 Z-0.125000 I-3585.660105 J1933.879843
G02 X72.966797 Y132.471170 Z-0.125000 I-65328.195359 J35424.344001
G03 X54.016743 Y97.545600 Z-0.125000 I63018.417407 J-34215.344933
G03 X47.955078 Y86.340300 Z-0.125000 I5742.063577 J-3113.493626
G02 X41.878043 Y75.144461 Z-0.125000 I-2344.280134 J1265.214005
G02 X41.130859 Y73.842300 Z-0.125000 I-31.008446 J16.927309
G03 X40.383906 Y72.540009 Z-0.125000 I30.114711 J-18.138198
G03 X36.919922 Y66.123500 Z-0.125000 I730.327606 J-398.414282
G02 X33.466399 Y59.700170 Z-0.125000 I-1208.205491 J645.455414
G02 X16.742188 Y28.832500 Z-0.125000 I-27966.282793 J15132.264237
G03 X0.074569 Y-2.034125 Z-0.125000 I7870.251702 J-4269.777997
G03 X0.001953 Y-2.315900 Z-0.125000 I0.537063 J-0.288650
G03 X0.150041 Y-2.463031 Z-0.125000 I0.148742 J0.001619
G03 X65.656250 Y-2.607000 Z-0.125000 I65.506208 J14902.628279
G01 X131.312500 Y-2.607000 Z-0.125000
G01 X132.457030 Y0.055200 Z-0.125000
G03 X133.590831 Y2.721006 Z-0.125000 I-339.963204 J146.164670
G03 X137.132810 Y11.170400 Z-0.125000 I-3313.752556 J1394.089399
G02 X140.693505 Y19.611790 Z-0.125000 I1207.060717 J-504.183231
G02 X141.908200 Y22.381300 Z-0.125000 I130.516409 J-55.592790
G03 X143.126678 Y25.149323 Z-0.125000 I-148.170004 J66.876336
G03 X145.376950 Y30.467300 Z-0.125000 I-523.044112 J224.458236
G02 X147.614290 Y35.791106 Z-0.125000 I1019.366811 J-425.258938
G02 X149.404300 Y39.979000 Z-0.125000 I604.983536 J-256.108472
G03 X151.118444 Y44.180941 Z-0.125000 I-103.885328 J44.829681
G03 X151.208980 Y44.668400 Z-0.125000 I-1.267002 J0.487459
G02 X151.461246 Y44.922075 Z-0.125000 I0.253679 J0.000000
G02 X225.052730 Y45.080500 Z-0.125000 I59.967261 J-10763.560996
G01 X298.896480 Y44.986500 Z-0.125000
G01 X304.115230 Y32.857600 Z-0.125000
G01 X312.574220 Y13.191600 Z-0.125000
G03 X315.815288 Y5.656578 Z-0.125000 R120762.421077
G03 X317.554690 Y1.613500 Z-0.125000 I55538.979582 J23900.482785
G01 X319.294920 Y-2.429500 Z-0.125000
G01 X386.785160 Y-2.523500 Z-0.125000
G03 X453.723388 Y-2.295447 Z-0.125000 I9.685704 J6981.023530
G03 X453.910160 Y-1.972700 Z-0.125000 I-0.001775 J0.216443
G02 X453.551410 Y-1.325356 Z-0.125000 I44.188989 J24.912072
G02 X450.656250 Y4.001900 Z-0.125000 I2808.167426 J1529.581940
G03 X447.748108 Y9.322196 Z-0.125000 I-791.804970 J-429.355799
G03 X447.009770 Y10.619100 Z-0.125000 I-46.878938 J-25.829935
G02 X446.275107 Y11.917703 Z-0.125000 I38.616004 J22.703481
G02 X444.373050 Y15.466800 Z-0.125000 I284.633618 J154.827059
G03 X442.473424 Y19.015310 Z-0.125000 I-308.638201 J-162.940799
G03 X441.978520 Y19.876900 Z-0.125000 I-18.110994 J-9.830152
G02 X441.482639 Y20.738525 Z-0.125000 I18.332998 J11.124476
G02 X437.908200 Y27.343700 Z-0.125000 I1094.352464 J596.486693
G03 X434.346259 Y33.956261 Z-0.125000 I-3047.109814 J-1637.099346
G03 X431.755860 Y38.738300 Z-0.125000 I-1898.506374 J-1025.315698
G02 X429.159757 Y43.516609 Z-0.125000 I55334.963876 J30078.402683
G02 X427.562500 Y46.457000 Z-0.125000 I45673.775226 J24799.995922
G02 X425.969546 Y49.400148 Z-0.125000 I992.641516 J539.161525
G02 X423.894530 Y53.257800 Z-0.125000 I1736.895770 J936.756341
G03 X421.817736 Y57.114071 Z-0.125000 I-1211.085664 J-649.742580
G03 X419.125000 Y62.080000 Z-0.125000 I-1965.163223 J-1062.381309
G02 X416.429882 Y67.044093 Z-0.125000 I3345.536284 J1819.580570
G02 X414.941410 Y69.798800 Z-0.125000 I1095.190337 J593.552241
G03 X413.451352 Y72.552978 Z-0.125000 I-759.381028 J-409.058123
G03 X407.851560 Y82.847600 Z-0.125000 I-11363.543268 J-6174.564705
G02 X402.257822 Y93.144908 Z-0.125000 I5062.733279 J2756.862947
G02 X401.478520 Y94.609300 Z-0.125000 I96.460918 J52.272918
G03 X400.697166 Y96.072414 Z-0.125000 I-81.917752 J-42.806736
G03 X397.666020 Y101.593700 Z-0.125000 I-1066.007272 J-581.637633
G02 X394.271724 Y107.782313 Z-0.125000 I1031.862512 J569.975313
G02 X389.560550 Y116.480400 Z-0.125000 I1904.844978 J1037.352527
G03 X387.473930 Y120.335756 Z-0.125000 I-988.712368 J-532.624720
G03 X382.564450 Y129.345670 Z-0.125000 I-5101.679078 J-2774.049917
G02 X377.658566 Y138.357838 Z-0.125000 I3477.763079 J1899.004285
G02 X373.787110 Y145.519500 Z-0.125000 I2198.953211 J1193.338844
G03 X369.917082 Y152.681524 Z-0.125000 I-2487.062845 J-1339.268029
G03 X350.964840 Y187.607390 Z-0.125000 I-53210.188024 J-28851.452157
G02 X332.008770 Y222.532171 Z-0.125000 I75602.039064 J41057.027852
G02 X330.029300 Y226.203090 Z-0.125000 I731.348969 J396.734511
G03 X317.827670 Y248.822058 Z-0.125000 I-4242.665681 J-2274.073185
G03 X299.597660 Y282.257780 Z-0.125000 I-9300.487066 J-5049.175580
G01 X297.283200 Y286.486800 Z-0.125000
G01 X226.824220 Y286.486800 Z-0.125000
G01 X156.365230 Y286.486800 Z-0.125000
G00 Z0.500000
M5
G4 P1.0
G1 F1000.0
(Change tool to Laser Engraver)

G00 Z0.500000
G00 X0.001953 Y-2.315900
M3 S90.0
G4 P1.0
G01 Z-0.125000 F500.0(Penetrate)
G01 X0.000000 Y-2.315900 Z-0.125000 F500.000000
G01 X0.000000 Y-2.315900 Z-0.125000
G01 X0.001953 Y-2.315900 Z-0.125000
G01 X0.001953 Y-2.315900 Z-0.125000
G00 Z0.500000
M5
G4 P1.0
G1 F1000.0
(Change tool to Laser Engraver)

G00 Z0.500000
G00 X163.669920 Y279.687970
M3 S90.0
G4 P1.0
G01 Z-0.125000 F500.0(Penetrate)
G01 X227.023440 Y279.594270 Z-0.125000 F500.000000
G01 X290.375000 Y279.500570 Z-0.125000
G01 X291.048830 Y278.215410 Z-0.125000
G03 X291.729303 Y276.931961 Z-0.125000 I138.410197 J72.561683
G03 X293.808590 Y273.068930 Z-0.125000 I1190.162597 J638.117257
G02 X295.893696 Y269.208926 Z-0.125000 I-17600.396086 J-9510.845862
G02 X298.671880 Y264.063070 Z-0.125000 I-21681.025161 J-11707.582879
G03 X306.746308 Y249.144957 Z-0.125000 I6311.306616 J3406.350164
G03 X308.250000 Y246.418540 Z-0.125000 I203.257653 J110.324185
G02 X312.663792 Y238.414141 Z-0.125000 I-585.422559 J-328.033286
G02 X319.916020 Y224.916580 Z-0.125000 I-1649.305734 J-894.867667
G03 X322.332221 Y220.431885 Z-0.125000 I430.796575 J229.205291
G03 X326.031250 Y213.705650 Z-0.125000 I990.851028 J540.528876
G02 X327.241069 Y211.493185 Z-0.125000 I-189.920143 J-105.289034
G02 X329.996090 Y206.354080 Z-0.125000 I-1030.129230 J-555.549667
G03 X332.755163 Y201.215989 Z-0.125000 I803.447748 J428.128873
G03 X334.273440 Y198.449790 Z-0.125000 I232.241289 J125.669916
G02 X340.201499 Y187.674480 Z-0.125000 I-1081.383369 J-601.943613
G02 X352.259770 Y165.367760 Z-0.125000 I-4603.795582 J-2503.071297
G03 X365.955226 Y139.972160 Z-0.125000 I8888.057280 J4776.801891
G03 X368.470700 Y135.410720 Z-0.125000 I287.840881 J155.759793
G02 X369.691011 Y133.195027 Z-0.125000 I-129.490697 J-72.761988
G02 X374.818360 Y123.649010 Z-0.125000 I-2371.925627 J-1280.156648
G03 X379.948963 Y114.103699 Z-0.125000 I2063.590725 J1103.028052
G03 X380.478520 Y113.178300 Z-0.125000 I19.339653 J10.452854
G02 X381.009529 Y112.253891 Z-0.125000 I-20.094666 J-12.157713
G02 X389.685550 Y96.270100 Z-0.125000 I-5666.140490 J-3085.934450
G03 X420.330035 Y39.696048 Z-0.125000 I53045.017033 J28696.325654
G03 X421.208980 Y38.149000 Z-0.125000 I39.685982 J21.524107
G02 X421.715853 Y37.259193 Z-0.125000 I-23.840012 J-14.169593
G02 X424.496090 Y32.121700 Z-0.125000 I-776.878911 J-423.741514
G03 X427.269307 Y26.980715 Z-0.125000 I1323.309751 J710.518637
G03 X428.281250 Y25.137300 Z-0.125000 I171.259463 J92.813397
G02 X429.290774 Y23.292983 Z-0.125000 I-139.840067 J-77.742722
G02 X430.558590 Y20.910700 Z-0.125000 I-228.951673 J-123.373215
G03 X431.826498 Y18.528381 Z-0.125000 I229.175983 J120.442521
G03 X433.728520 Y15.029900 Z-0.125000 I477.298607 J257.227067
G02 X435.635083 Y11.532662 Z-0.125000 I-692.479450 J-379.782037
G02 X437.464840 Y8.135300 Z-0.125000 I-661.289624 J-358.350007
G01 X439.285160 Y4.734900 Z-0.125000
G01 X382.966800 Y4.828900 Z-0.125000
G01 X326.648440 Y4.922900 Z-0.125000
G01 X326.244140 Y5.840900 Z-0.125000
G02 X323.374728 Y12.451660 Z-0.125000 I948.689277 J415.708395
G02 X319.052730 Y22.565500 Z-0.125000 I2310.185245 J993.203398
G03 X317.174156 Y26.975235 Z-0.125000 I-2078.286048 J-882.757540
G03 X315.675780 Y30.469800 Z-0.125000 I-1367.587675 J-584.316477
G02 X314.180094 Y33.964290 Z-0.125000 I908.867989 J391.074453
G02 X313.015620 Y36.717900 Z-0.125000 I569.064168 J242.274462
G03 X307.513767 Y48.086251 Z-0.125000 I-109.714590 J-46.082200
G03 X305.587890 Y50.192500 Z-0.125000 I-5.325520 J-2.935861
G03 X303.418641 Y51.414390 Z-0.125000 I-8.682109 J-12.877046
G03 X302.027340 Y51.837000 Z-0.125000 I-2.218866 J-4.803367
G03 X300.552169 Y51.955745 Z-0.125000 I-1.509881 J-9.534836
G03 X225.548830 Y52.112400 Z-0.125000 I-89.480340 J-24886.359343
G03 X150.559155 Y51.944015 Z-0.125000 I-7.760076 J-13242.370020
G03 X148.445310 Y51.721800 Z-0.125000 I0.054227 J-10.681030
G03 X146.441735 Y51.080304 Z-0.125000 I2.036920 J-9.811492
G03 X144.478520 Y49.973700 Z-0.125000 I4.631841 J-10.512068
G03 X142.986532 Y48.240763 Z-0.125000 I2.669406 J-3.806989
G03 X135.488280 Y31.938600 Z-0.125000 I256.848673 J-128.014190
G02 X133.067969 Y26.246640 Z-0.125000 I-1281.680760 J541.630369
G02 X131.322270 Y22.198300 Z-0.125000 I-712.189850 J304.705277
G03 X129.579147 Y18.148888 Z-0.125000 I579.728205 J-251.951577
G03 X126.738280 Y11.446400 Z-0.125000 I1591.875667 J-678.673923
G01 X123.912110 Y4.737400 Z-0.125000
G01 X69.382812 Y4.737400 Z-0.125000
G02 X15.032270 Y4.914940 Z-0.125000 I0.000000 J8319.274901
G02 X14.855469 Y5.092900 Z-0.125000 I0.001163 J0.177960
G02 X14.973573 Y5.564656 Z-0.125000 I1.001246 J-0.000000
G02 X28.113281 Y29.915100 Z-0.125000 I2895.146831 J-1546.525637
G03 X35.109810 Y42.789355 Z-0.125000 I-5182.834094 J2824.955503
G03 X36.876953 Y46.089000 Z-0.125000 I-337.577156 J182.914330
G02 X38.644330 Y49.388355 Z-0.125000 I333.352903 J-176.445277
G02 X43.751953 Y58.770600 Z-0.125000 I2625.622088 J-1423.287316
G03 X56.345283 Y81.875889 Z-0.125000 I-8917.731156 J4875.513863
G03 X62.925781 Y94.057700 Z-0.125000 I-2480.032908 J1347.558310
G02 X88.260047 Y140.963578 Z-0.125000 I9844.969327 J-5287.057481
G02 X90.751953 Y145.284270 Z-0.125000 I85.825121 J-46.619660
G03 X91.212568 Y146.083059 Z-0.125000 I-15.326792 J9.370267
G03 X97.164062 Y157.096770 Z-0.125000 I-2779.236943 J1508.934893
G02 X103.110644 Y168.116194 Z-0.125000 I3893.599786 J-2094.049231
G02 X105.425780 Y172.352630 Z-0.125000 I549.443321 J-297.510052
G03 X107.729151 Y176.593873 Z-0.125000 I-325.185516 J179.350673
G03 X108.472660 Y178.049900 Z-0.125000 I-38.146267 J20.396940
G02 X109.219850 Y179.504118 Z-0.125000 I34.366196 J-16.738594
G02 X112.451170 Y185.401460 Z-0.125000 I565.351403 J-305.938019
G03 X115.695777 Y191.292250 Z-0.125000 I-975.520129 J541.148735
G03 X117.777340 Y195.141690 Z-0.125000 I-406.030015 J222.045996
G02 X119.848792 Y198.997030 Z-0.125000 I931.966132 J-498.255919
G02 X122.042970 Y203.044040 Z-0.125000 I1186.460276 J-640.647911
G03 X124.238386 Y207.090277 Z-0.125000 I-1477.584456 J804.329732
G03 X126.019530 Y210.395600 Z-0.125000 I-1098.560826 J594.115507
G02 X138.925322 Y234.242652 Z-0.125000 I3622.686750 J-1945.146993
G02 X141.359380 Y238.516690 Z-0.125000 I117.736998 J-64.220918
G03 X142.641115 Y240.773199 Z-0.125000 I-57.415194 J34.105087
G03 X150.732420 Y255.792080 Z-0.125000 I-2515.680313 J1364.992054
G02 X152.216601 Y258.544462 Z-0.125000 I408.599605 J-218.554844
G02 X153.330080 Y260.571380 Z-0.125000 I229.531377 J-124.772852
G03 X154.440637 Y262.599123 Z-0.125000 I-177.141615 J98.335183
G03 X156.507810 Y266.452240 Z-0.125000 I-653.941299 J353.316382
G02 X158.571455 Y270.306721 Z-0.125000 I935.032904 J-498.126254
G02 X160.166020 Y273.251070 Z-0.125000 I540.662394 J-290.901450
G03 X161.769211 Y276.192843 Z-0.125000 I-18323.308551 J9987.361467
G03 X162.720700 Y277.940520 Z-0.125000 I-2576.992370 J1404.135939
G01 X163.669920 Y279.687970 Z-0.125000
G00 Z0.500000
M5
G4 P1.0
G1 F1000.0
(Change tool to Laser Engraver)

G00 Z0.500000
G00 X224.083980 Y218.412580
M3 S90.0
G4 P1.0
G01 Z-0.125000 F500.0(Penetrate)
G03 X218.675872 Y216.758514 Z-0.125000 I1.500195 J-14.573182 F500.000000
G03 X215.736330 Y213.775860 Z-0.125000 I3.323596 J-6.215408
G03 X212.223138 Y206.441704 Z-0.125000 I121.370413 J-62.647124
G03 X204.796880 Y189.078590 Z-0.125000 I675.056212 J-298.993309
G02 X203.863252 Y186.883024 Z-0.125000 I-103.052231 J42.524974
G02 X201.093750 Y180.623520 Z-0.125000 I-827.969352 J362.590519
G03 X192.724765 Y161.769817 Z-0.125000 I3657.548179 J-1634.836134
G03 X191.453120 Y158.752420 Z-0.125000 I91.700066 J-40.422543
G02 X190.913320 Y157.475674 Z-0.125000 I-36.852907 J14.828672
G02 X189.660160 Y154.709450 Z-0.125000 I-175.345056 J77.768214
G03 X187.207090 Y149.276605 Z-0.125000 I295.929318 J-136.889979
G03 X176.705080 Y125.303200 Z-0.125000 I5722.102479 J-2520.963758
G02 X173.390199 Y117.782754 Z-0.125000 I-862.897842 J375.859428
G02 X172.437500 Y115.734800 Z-0.125000 I-64.911170 J28.950825
G03 X171.511887 Y113.676652 Z-0.125000 I35.401115 J-17.158190
G03 X170.357420 Y110.730900 Z-0.125000 I71.499115 J-29.720255
G03 X169.734176 Y107.774580 Z-0.125000 I9.787897 J-3.607317
G03 X170.058590 Y105.963400 Z-0.125000 I3.867816 J-0.241850
G03 X170.960591 Y104.247452 Z-0.125000 I13.227649 J5.858169
G03 X171.509770 Y103.602000 Z-0.125000 I2.354029 J1.446552
G03 X174.299878 Y101.870050 Z-0.125000 I6.891706 J7.988932
G03 X178.267580 Y100.750500 Z-0.125000 I6.465610 J15.323643
G03 X181.502948 Y100.495521 Z-0.125000 I3.380639 J22.242264
G03 X224.510949 Y100.344500 Z-0.125000 I47.138047 J7300.009437
G03 X267.294941 Y100.445099 Z-0.125000 I4.148861 J7333.416496
G03 X271.646480 Y100.697500 Z-0.125000 I-0.218103 J41.397960
G03 X278.926894 Y103.221884 Z-0.125000 I-1.922166 J17.304278
G03 X281.447270 Y106.801000 Z-0.125000 I-2.968242 J4.767173
G03 X281.313100 Y109.038184 Z-0.125000 I-4.061378 J0.879044
G03 X276.701170 Y120.523700 Z-0.125000 I-119.693409 J-41.393368
G02 X274.947400 Y124.392935 Z-0.125000 I375.579155 J172.567125
G02 X272.427730 Y130.082300 Z-0.125000 I808.993623 J361.684626
G03 X269.919043 Y135.774932 Z-0.125000 I-1691.599738 J-742.072267
G03 X266.082030 Y144.416280 Z-0.125000 I-3898.089634 J-1725.694040
G02 X259.734199 Y158.684597 Z-0.125000 I18394.900255 J8192.246777
G02 X255.953120 Y167.207300 Z-0.125000 I6558.780784 J2914.890603
G03 X253.590403 Y172.536374 Z-0.125000 I-6419.805292 J-2843.119793
G03 X252.037110 Y176.029570 Z-0.125000 I-2608.187168 J-1157.670707
G02 X237.789862 Y208.125716 Z-0.125000 I12190.857362 J5430.643860
G02 X236.509770 Y211.133080 Z-0.125000 I106.569813 J47.137836
G03 X233.020155 Y215.836929 Z-0.125000 I-10.959895 J-4.484415
G03 X227.710940 Y218.287380 Z-0.125000 I-7.448628 J-9.161632
G03 X225.914185 Y218.478771 Z-0.125000 I-2.154096 J-11.692846
G03 X224.083980 Y218.412380 Z-0.125000 I-0.415292 J-13.811535
G01 X224.083980 Y218.412580 Z-0.125000
G00 Z0.500000
M5
G4 P1.0
G1 F1000.0
(Change tool to Laser Engraver)

G00 Z0.500000
G00 X225.490230 Y211.314920
M3 S90.0
G4 P1.0
G01 Z-0.125000 F500.0(Penetrate)
G02 X225.687874 Y211.206532 Z-0.125000 I0.000474 J-0.233530 F500.000000
G02 X226.363280 Y209.937970 Z-0.125000 I-7.959693 J-5.051970
G03 X226.970726 Y208.561146 Z-0.125000 I274.764839 J120.402170
G03 X235.546880 Y189.262190 Z-0.125000 I60614.804643 J26924.687789
G02 X244.121663 Y169.962627 Z-0.125000 I-41920.287901 J-18636.772406
G02 X250.480470 Y155.629380 Z-0.125000 I-22369.469363 J-9932.552883
G03 X256.841421 Y141.296322 Z-0.125000 I15921.600846 J7057.360037
G03 X258.402340 Y137.801250 Z-0.125000 I922.994563 J410.118595
G02 X271.549028 Y108.276737 Z-0.125000 I-4905.706379 J-2202.104346
G02 X271.646480 Y107.814900 Z-0.125000 I-1.045628 J-0.461837
G01 X271.569339 Y107.737493 Z-0.125000
G02 X225.753910 Y107.658700 Z-0.125000 I-45.815429 J13320.017543
G02 X180.087799 Y107.888779 Z-0.125000 I-0.000000 J4532.016164
G02 X179.859380 Y108.119600 Z-0.125000 I0.002325 J0.230732
G02 X179.948717 Y108.560115 Z-0.125000 I1.132518 J-0.000359
G02 X183.859380 Y117.584500 Z-0.125000 I499.976159 J-211.302167
G03 X187.853726 Y126.592070 Z-0.125000 I-7627.049829 J3387.553399
G03 X189.146480 Y129.529770 Z-0.125000 I-654.049934 J289.572129
G02 X190.436442 Y132.468682 Z-0.125000 I1159.976718 J-507.390242
G02 X194.732420 Y142.211410 Z-0.125000 I11535.658417 J-5080.739353
G03 X199.026715 Y151.954139 Z-0.125000 I-8485.439622 J3745.938160
G03 X200.556640 Y155.443830 Z-0.125000 I-1244.799585 J547.816284
G02 X202.087028 Y158.933492 Z-0.125000 I1155.784301 J-504.787492
G02 X206.302730 Y168.492660 Z-0.125000 I8648.505976 J-3808.382318
G03 X210.515169 Y178.054650 Z-0.125000 I-5089.814303 J2247.975579
G03 X213.005860 Y183.748520 Z-0.125000 I-1708.264150 J750.644168
G02 X215.505288 Y189.437724 Z-0.125000 I876.023154 J-381.468163
G02 X216.998050 Y192.754380 Z-0.125000 I290.414772 J-128.715701
G03 X218.496616 Y196.068450 Z-0.125000 I-416.304964 J190.241874
G03 X220.369140 Y200.289530 Z-0.125000 I-665.846970 J297.903924
G02 X222.228366 Y204.516732 Z-0.125000 I274639.587604 J-120849.218985
G02 X223.724610 Y207.916480 Z-0.125000 I7487.770894 J-3293.317752
G02 X225.297789 Y211.197792 Z-0.125000 I51.626436 J-22.733800
G02 X225.490230 Y211.314920 Z-0.125000 I0.192882 J-0.100250
G01 X225.490230 Y211.314920 Z-0.125000
G00 Z0.500000
M5
G4 P1.0
G1 F1000.0
(End cutting path id: path508)


(Footer)
M5
G00 X0.0000 Y0.0000
M2
(Using default footer. To add your own footer create file "footer" in the output dir.)
(end)
%