%
(Header)
(Generated by gcodetools from Inkscape.)
(Using default header. To add your own header create file "header" in the output dir.)
M3
(Header end.)
G21 (All units in mm)

(Start cutting path id: path508)
(Change tool to Laser Engraver)

G00 Z0.500000
G00 X156.365230 Y1122.520000
M3 S90.0
G4 P1.0
G01 Z-0.125000 F500.0(Penetrate)
G01 X154.351560 Y1118.660625 Z-0.125000 F500.000000
G02 X152.312502 Y1114.814280 Z-0.125000 I-297.380276 J155.186173
G02 X147.326170 Y1105.611797 Z-0.125000 I-1763.119938 J949.387987
G03 X120.771298 Y1056.780770 Z-0.125000 I22295.961993 J-12156.435847
G03 X96.287109 Y1011.512190 Z-0.125000 I19130.311757 J-10376.170778
G02 X91.916613 Y1003.430206 Z-0.125000 I-3650.902625 J1969.075981
G02 X72.966797 Y968.504380 Z-0.125000 I-60959.077592 J33052.183853
G03 X54.016750 Y933.578849 Z-0.125000 I62691.766576 J-34038.147498
G03 X47.955078 Y922.373520 Z-0.125000 I5745.436905 J-3115.313919
G02 X41.878070 Y911.179509 Z-0.125000 I-2279.768985 J1230.395179
G02 X41.130859 Y909.877420 Z-0.125000 I-31.144548 J17.007024
G03 X40.383899 Y908.574802 Z-0.125000 I29.965271 J-18.048444
G03 X36.919922 Y902.156720 Z-0.125000 I749.628642 J-408.734590
G02 X33.466388 Y895.733343 Z-0.125000 I-1207.968633 J645.325237
G02 X16.742188 Y864.865700 Z-0.125000 I-27896.870453 J15094.659561
G03 X0.069493 Y833.991370 Z-0.125000 I7970.272577 J-4324.029981
G03 X0.000000 Y833.715310 Z-0.125000 I0.513579 J-0.276060
G03 X0.146525 Y833.568132 Z-0.125000 I0.147180 J0.000000
G03 X65.656250 Y833.424300 Z-0.125000 I64.703795 J14551.395920
G01 X131.312500 Y833.428300 Z-0.125000
G01 X132.457030 Y836.088460 Z-0.125000
G03 X133.590842 Y838.754755 Z-0.125000 I-334.603155 J143.860476
G03 X137.132810 Y847.205650 Z-0.125000 I-3482.197739 J1464.438240
G02 X140.693497 Y855.646969 Z-0.125000 I1208.256574 J-504.690760
G02 X141.908200 Y858.416580 Z-0.125000 I130.636848 J-55.643883
G03 X143.126669 Y861.184518 Z-0.125000 I-148.015935 J66.809976
G03 X145.376950 Y866.502520 Z-0.125000 I-523.116182 J224.488628
G02 X147.614296 Y871.826368 Z-0.125000 I1018.693923 J-424.973876
G02 X149.404300 Y876.014240 Z-0.125000 I604.830511 J-256.043593
G03 X151.118399 Y880.214415 Z-0.125000 I-104.566596 J45.123669
G03 X151.208980 Y880.701740 Z-0.125000 I-1.265612 J0.487325
G02 X151.461123 Y880.955305 Z-0.125000 I0.253569 J0.000000
G02 X225.052730 Y881.115800 Z-0.125000 I60.100235 J-10685.653463
G01 X298.896480 Y881.022100 Z-0.125000
G01 X304.115230 Y868.891240 Z-0.125000
G01 X312.574220 Y849.227180 Z-0.125000
G02 X315.815261 Y841.691005 Z-0.125000 R186888.429743
G03 X317.554690 Y837.647100 Z-0.125000 R26779.654600
G01 X319.294920 Y833.604130 Z-0.125000
G01 X386.785160 Y833.512330 Z-0.125000
G03 X453.723397 Y833.740376 Z-0.125000 I9.662716 J6988.009971
G03 X453.910160 Y834.063110 Z-0.125000 I-0.001774 J0.216433
G02 X453.551416 Y834.710427 Z-0.125000 I44.030538 J24.824843
G02 X450.656250 Y840.037720 Z-0.125000 I2848.623685 J1551.560958
G03 X447.748098 Y845.356455 Z-0.125000 I-762.370691 J-413.390847
G03 X447.009770 Y846.652950 Z-0.125000 I-47.281365 J-26.067330
G02 X446.275081 Y847.951653 Z-0.125000 I38.692443 J22.745850
G02 X444.373050 Y851.500610 Z-0.125000 I284.512334 J154.765961
G03 X442.473449 Y855.050659 Z-0.125000 I-319.510440 J-168.684075
G03 X441.978520 Y855.912720 Z-0.125000 I-17.998176 J-9.760058
G02 X441.482660 Y856.774046 Z-0.125000 I18.394591 J11.163044
G02 X437.908200 Y863.377560 Z-0.125000 I1055.864971 J575.805362
G03 X434.346229 Y869.991346 Z-0.125000 I-3266.472641 J-1754.950129
G03 X431.755860 Y874.774050 Z-0.125000 I-1780.586355 J-961.293960
G02 X429.159755 Y879.552399 Z-0.125000 I71153.118530 J38669.640636
G02 X427.562500 Y882.492800 Z-0.125000 I36221.559577 J19674.175477
G02 X425.969530 Y885.435162 Z-0.125000 I1084.948172 J589.284099
G02 X423.894530 Y889.291620 Z-0.125000 I1571.687747 J848.146509
G03 X421.817717 Y893.148004 Z-0.125000 I-1208.521751 J-648.348716
G03 X419.125000 Y898.113890 Z-0.125000 I-1956.589841 J-1057.734070
G02 X416.429900 Y903.077876 Z-0.125000 I3346.057249 J1819.890577
G02 X414.941410 Y905.832640 Z-0.125000 I1086.482899 J588.842153
G03 X413.451364 Y908.587189 Z-0.125000 I-790.193623 J-425.667291
G03 X407.851560 Y918.883420 Z-0.125000 I-9930.579617 J-5394.265018
G02 X402.257813 Y929.180784 Z-0.125000 I5047.493079 J2748.573757
G02 X401.478520 Y930.645140 Z-0.125000 I96.586107 J52.340176
G03 X400.697146 Y932.108333 Z-0.125000 I-81.705558 J-42.692157
G03 X397.666020 Y937.629520 Z-0.125000 I-1069.087060 J-583.335049
G02 X394.271724 Y943.818136 Z-0.125000 I1031.520249 J569.787304
G02 X389.560550 Y952.516230 Z-0.125000 I1905.579520 J1037.749571
G03 X387.473914 Y956.371645 Z-0.125000 I-984.364863 J-530.267724
G03 X382.564450 Y965.381470 Z-0.125000 I-5117.598153 J-2782.742338
G02 X377.658558 Y974.393674 Z-0.125000 I3475.245292 J1897.629420
G02 X373.787110 Y981.555300 Z-0.125000 I2203.089753 J1195.578331
G03 X369.917059 Y988.717087 Z-0.125000 I-2446.668600 J-1317.492423
G03 X350.964840 Y1023.641234 Z-0.125000 I-56657.201476 J-30723.436430
G02 X332.008759 Y1058.566062 Z-0.125000 I75494.666985 J40998.724642
G02 X330.029300 Y1062.236937 Z-0.125000 I732.340410 J397.271708
G03 X317.827683 Y1084.856644 Z-0.125000 I-4270.025443 J-2288.754179
G03 X299.597660 Y1118.293578 Z-0.125000 I-9217.762741 J-5003.893299
G01 X297.283200 Y1122.520000 Z-0.125000
G01 X226.824220 Y1122.520000 Z-0.125000
G01 X156.365230 Y1122.520000 Z-0.125000
G00 Z0.500000
M5
G4 P1.0
G1 F1000.0
(Change tool to Laser Engraver)

G00 Z0.500000
G00 X163.669920 Y1115.723125
M3 S90.0
G4 P1.0
G01 Z-0.125000 F500.0(Penetrate)
G01 X227.023440 Y1115.629375 Z-0.125000 F500.000000
G01 X290.375000 Y1115.535625 Z-0.125000
G01 X291.048830 Y1114.248516 Z-0.125000
G03 X291.729294 Y1112.965597 Z-0.125000 I133.923619 J70.211574
G03 X293.808590 Y1109.103984 Z-0.125000 I1323.993814 J710.417490
G02 X295.893681 Y1105.244045 Z-0.125000 I-16996.907848 J-9183.850339
G02 X298.671880 Y1100.098125 Z-0.125000 I-21146.152464 J-11419.975597
G03 X306.746299 Y1085.180051 Z-0.125000 I6314.766737 J3408.227890
G03 X308.250000 Y1082.453594 Z-0.125000 I203.365838 J110.382893
G02 X312.663802 Y1074.449154 Z-0.125000 I-585.489400 J-328.069279
G02 X319.916020 Y1060.951641 Z-0.125000 I-1649.825920 J-895.149009
G03 X322.332218 Y1056.466159 Z-0.125000 I437.408241 J232.725553
G03 X326.031250 Y1049.738750 Z-0.125000 I968.694656 J528.251185
G02 X327.241063 Y1047.526311 Z-0.125000 I-190.015927 J-105.342136
G02 X329.996090 Y1042.387188 Z-0.125000 I-1027.415878 J-554.094274
G03 X332.755144 Y1037.250457 Z-0.125000 I779.243603 J415.239996
G03 X334.273440 Y1034.484844 Z-0.125000 I236.594384 J128.088541
G02 X340.201489 Y1023.709577 Z-0.125000 I-1081.065311 J-601.769955
G02 X352.259770 Y1001.402810 Z-0.125000 I-4603.729740 J-2503.032595
G03 X365.955237 Y976.007172 Z-0.125000 I8903.068236 J4784.893595
G03 X368.470700 Y971.445780 Z-0.125000 I287.644094 J155.652297
G02 X369.691013 Y969.230078 Z-0.125000 I-129.579174 J-72.810504
G02 X374.818360 Y959.684060 Z-0.125000 I-2366.502464 J-1277.243327
G03 X379.948984 Y950.138665 Z-0.125000 I2069.585276 J1106.244880
G03 X380.478520 Y949.213360 Z-0.125000 I19.310045 J10.436635
G02 X381.009540 Y948.288903 Z-0.125000 I-20.107600 J-12.164812
G02 X389.685550 Y932.305160 Z-0.125000 I-5668.995755 J-3087.489508
G03 X420.330010 Y875.729315 Z-0.125000 I54394.727202 J29426.465169
G03 X421.208980 Y874.182110 Z-0.125000 I39.698793 J21.529677
G02 X421.715831 Y873.292667 Z-0.125000 I-23.952441 J-14.238475
G02 X424.496090 Y868.156720 Z-0.125000 I-749.224559 J-408.900739
G03 X427.269303 Y863.015768 Z-0.125000 I1317.910853 J707.609828
G03 X428.281250 Y861.172340 Z-0.125000 I171.619505 J93.010749
G02 X429.290763 Y859.328088 Z-0.125000 I-139.516811 J-77.567615
G02 X430.558590 Y856.945780 Z-0.125000 I-229.126799 J-123.466204
G03 X431.826486 Y854.563443 Z-0.125000 I229.359248 J120.538008
G03 X433.728520 Y851.064920 Z-0.125000 I476.184755 J256.619962
G02 X435.635067 Y847.567783 Z-0.125000 I-695.361621 J-381.361092
G02 X437.464840 Y844.170390 Z-0.125000 I-656.308016 J-355.666809
G01 X439.285160 Y840.768050 Z-0.125000
G01 X382.966800 Y840.861750 Z-0.125000
G01 X326.648440 Y840.955450 Z-0.125000
G01 X326.244140 Y841.875370 Z-0.125000
G02 X323.374711 Y848.486221 Z-0.125000 I950.297004 J416.403031
G02 X319.052730 Y858.599980 Z-0.125000 I2308.604704 J992.531977
G03 X317.174152 Y863.008639 Z-0.125000 I-1914.862358 J-813.339529
G03 X315.675780 Y866.502320 Z-0.125000 I-1469.079502 J-627.991317
G02 X314.180103 Y869.997818 Z-0.125000 I860.517183 J370.271639
G02 X313.015620 Y872.752320 Z-0.125000 I594.250614 J252.846513
G03 X307.513767 Y884.120701 Z-0.125000 I-109.719742 J-46.084544
G03 X305.587890 Y886.226930 Z-0.125000 I-5.325323 J-2.935728
G03 X303.418625 Y887.447570 Z-0.125000 I-8.632144 J-12.802774
G03 X302.027340 Y887.869510 Z-0.125000 I-2.221486 J-4.820269
G03 X300.552169 Y887.988295 Z-0.125000 I-1.510406 J-9.538151
G03 X225.548830 Y888.146850 Z-0.125000 I-89.159216 J-24436.139785
G03 X150.559210 Y887.978712 Z-0.125000 I-7.713006 J-13282.797942
G03 X148.445310 Y887.756230 Z-0.125000 I0.054029 J-10.667138
G03 X146.441734 Y887.114768 Z-0.125000 I2.036247 J-9.809891
G03 X144.478520 Y886.008180 Z-0.125000 I4.632185 J-10.512802
G03 X142.986532 Y884.275239 Z-0.125000 I2.669399 J-3.806978
G03 X135.488280 Y867.973020 Z-0.125000 I256.857010 J-128.017637
G02 X133.067954 Y862.281054 Z-0.125000 I-1281.944678 J541.745360
G02 X131.322270 Y858.232790 Z-0.125000 I-711.589186 J304.449445
G03 X129.579133 Y854.183286 Z-0.125000 I579.958773 J-252.047249
G03 X126.738280 Y847.480840 Z-0.125000 I1595.211251 J-680.088527
G01 X123.912110 Y840.771850 Z-0.125000
G01 X69.382812 Y840.771850 Z-0.125000
G02 X15.032293 Y840.949337 Z-0.125000 I-0.000000 J8321.761549
G02 X14.855469 Y841.127320 Z-0.125000 I0.001162 J0.177983
G02 X14.973562 Y841.599102 Z-0.125000 I1.001428 J-0.000000
G02 X28.113281 Y865.951540 Z-0.125000 I2872.343569 J-1534.094417
G03 X35.109806 Y878.825723 Z-0.125000 I-5179.259677 J2823.027195
G03 X36.876953 Y882.125370 Z-0.125000 I-337.533244 J182.891092
G02 X38.644336 Y885.424252 Z-0.125000 I329.113291 J-174.200272
G02 X43.751953 Y894.805060 Z-0.125000 I2717.261298 J-1473.400372
G03 X56.345305 Y917.911718 Z-0.125000 I-8764.667495 J4791.813528
G03 X62.925781 Y930.094120 Z-0.125000 I-2505.922539 J1361.473732
G02 X88.260075 Y976.998314 Z-0.125000 I9781.207626 J-5252.815443
G02 X90.751953 Y981.318730 Z-0.125000 I85.847122 J-46.635054
G03 X91.212580 Y982.117694 Z-0.125000 I-15.298609 J9.352389
G03 X97.164062 Y993.133180 Z-0.125000 I-2877.031572 J1561.527147
G02 X103.110670 Y1004.151287 Z-0.125000 I3755.687414 J-2019.876951
G02 X105.425780 Y1008.387090 Z-0.125000 I555.888046 J-301.074221
G03 X107.729162 Y1012.628370 Z-0.125000 I-325.283085 J179.402942
G03 X108.472660 Y1014.084350 Z-0.125000 I-38.159780 J20.404172
G02 X109.219835 Y1015.538506 Z-0.125000 I34.373127 J-16.742591
G02 X112.451170 Y1021.435920 Z-0.125000 I566.142364 J-306.368999
G03 X115.695759 Y1027.326636 Z-0.125000 I-975.456215 J541.117294
G03 X117.777340 Y1031.176150 Z-0.125000 I-405.411079 J221.709008
G02 X119.848775 Y1035.032375 Z-0.125000 I982.859739 J-525.475010
G02 X122.042970 Y1039.080447 Z-0.125000 I1121.660135 J-605.359747
G03 X124.238376 Y1043.126641 Z-0.125000 I-1468.029704 J799.150159
G03 X126.019530 Y1046.432009 Z-0.125000 I-1100.935163 J595.390391
G02 X138.925331 Y1070.277427 Z-0.125000 I3588.364115 J-1926.706869
G02 X141.359380 Y1074.551150 Z-0.125000 I117.920406 J-64.330191
G03 X142.641096 Y1076.807574 Z-0.125000 I-57.372884 J34.081743
G03 X150.732420 Y1091.826541 Z-0.125000 I-2517.774932 J1366.116075
G02 X152.216590 Y1094.578875 Z-0.125000 I409.408597 J-218.993341
G02 X153.330080 Y1096.605838 Z-0.125000 I229.679104 J-124.852410
G03 X154.440649 Y1098.633629 Z-0.125000 I-177.206559 J98.369466
G03 X156.507810 Y1102.486697 Z-0.125000 I-655.440572 J354.123257
G02 X158.571455 Y1106.342289 Z-0.125000 I987.038061 J-525.816447
G02 X160.166020 Y1109.287478 Z-0.125000 I520.072168 J-279.669889
G02 X161.769200 Y1112.227982 Z-0.125000 I17801.189456 J-9703.602906
G03 X162.720700 Y1113.974978 Z-0.125000 I-1705.990472 J930.301893
G01 X163.669920 Y1115.723125 Z-0.125000
G00 Z0.500000
M5
G4 P1.0
G1 F1000.0
(Change tool to Laser Engraver)

G00 Z0.500000
G00 X224.083980 Y1054.447734
M3 S90.0
G4 P1.0
G01 Z-0.125000 F500.0(Penetrate)
G03 X218.675791 Y1052.792638 Z-0.125000 I1.498956 J-14.561425 F500.000000
G03 X215.736330 Y1049.809062 Z-0.125000 I3.328062 J-6.218642
G03 X212.223121 Y1042.474829 Z-0.125000 I121.373071 J-62.648105
G03 X204.796880 Y1025.111797 Z-0.125000 I675.199838 J-299.055404
G02 X203.863243 Y1022.916750 Z-0.125000 I-102.251571 J42.195422
G02 X201.093750 Y1016.658670 Z-0.125000 I-847.286962 J371.222190
G03 X192.724752 Y997.804907 Z-0.125000 I3657.348768 J-1634.745218
G03 X191.453120 Y994.787580 Z-0.125000 I91.726438 J-40.434091
G02 X190.913306 Y993.510768 Z-0.125000 I-36.791142 J14.802146
G02 X189.660160 Y990.744610 Z-0.125000 I-175.719391 J77.938792
G03 X187.207098 Y985.311807 Z-0.125000 I295.851256 J-136.855290
G03 X176.705080 Y961.338360 Z-0.125000 I5723.077368 J-2521.388445
G02 X173.390197 Y953.817934 Z-0.125000 I-862.118897 J375.517418
G02 X172.437500 Y951.770000 Z-0.125000 I-64.921170 J28.955692
G03 X171.511884 Y949.711834 Z-0.125000 I35.398934 J-17.157133
G03 X170.357420 Y946.766090 Z-0.125000 I71.512964 J-29.725677
G03 X169.734181 Y943.809717 Z-0.125000 I9.788453 J-3.607404
G03 X170.058590 Y941.998520 Z-0.125000 I3.867919 J-0.241856
G03 X170.960539 Y940.281176 Z-0.125000 I13.305519 J5.892536
G03 X171.509770 Y939.635230 Z-0.125000 I2.350462 J1.442063
G03 X174.299886 Y937.903249 Z-0.125000 I6.891617 J7.988630
G03 X178.267580 Y936.783670 Z-0.125000 I6.465927 J15.324331
G03 X181.502934 Y936.528795 Z-0.125000 I3.380645 J22.251493
G03 X224.510949 Y936.377839 Z-0.125000 I47.128991 J7300.569550
G03 X267.294933 Y936.478490 Z-0.125000 I4.139525 J7333.579838
G03 X271.646480 Y936.730970 Z-0.125000 I-0.218081 J41.384849
G03 X278.926953 Y939.256431 Z-0.125000 I-1.921391 J17.295952
G03 X281.447270 Y942.836440 Z-0.125000 I-2.970767 J4.768566
G03 X281.313111 Y945.073540 Z-0.125000 I-4.061151 J0.879026
G03 X276.701170 Y956.559090 Z-0.125000 I-119.699649 J-41.395824
G02 X274.947418 Y960.427458 Z-0.125000 I380.397308 J174.787506
G02 X272.427730 Y966.115730 Z-0.125000 I792.416932 J354.412778
G03 X269.919050 Y971.809110 Z-0.125000 I-1744.332084 J-765.207355
G03 X266.082030 Y980.451670 Z-0.125000 I-3733.852143 J-1652.537972
G02 X259.734206 Y994.718729 Z-0.125000 I20030.376200 J8920.636039
G02 X255.953120 Y1003.240730 Z-0.125000 I6242.309908 J2774.720324
G03 X253.590393 Y1008.569836 Z-0.125000 I-6414.096610 J-2840.584237
G03 X252.037110 Y1012.063000 Z-0.125000 I-2604.027758 J-1155.823953
G02 X237.789883 Y1044.159050 Z-0.125000 I12206.634342 J5437.655507
G02 X236.509770 Y1047.166514 Z-0.125000 I106.508472 J47.110994
G03 X233.020164 Y1051.870346 Z-0.125000 I-10.959923 J-4.484455
G03 X227.710940 Y1054.320811 Z-0.125000 I-7.448668 J-9.161659
G03 X225.914191 Y1054.513182 Z-0.125000 I-2.169307 J-11.774343
G03 X224.083980 Y1054.447764 Z-0.125000 I-0.426553 J-13.701015
G01 X224.083980 Y1054.447734 Z-0.125000
G00 Z0.500000
M5
G4 P1.0
G1 F1000.0
(Change tool to Laser Engraver)

G00 Z0.500000
G00 X225.490230 Y1047.350078
M3 S90.0
G4 P1.0
G01 Z-0.125000 F500.0(Penetrate)
G02 X225.687948 Y1047.241478 Z-0.125000 I0.000458 J-0.233450 F500.000000
G02 X226.363280 Y1045.971172 Z-0.125000 I-8.042738 J-5.090420
G03 X226.970735 Y1044.594299 Z-0.125000 I274.005118 J120.064507
G03 X235.546880 Y1025.295391 Z-0.125000 I60249.425866 J26762.362099
G02 X244.121654 Y1005.995855 Z-0.125000 I-42022.699739 J-18682.177162
G02 X250.480470 Y991.662580 Z-0.125000 I-22314.117422 J-9908.031321
G03 X256.841426 Y977.329498 Z-0.125000 I15883.415697 J7040.408776
G03 X258.402340 Y973.834450 Z-0.125000 I922.699371 J409.988249
G02 X271.549007 Y944.310050 Z-0.125000 I-4912.770613 J-2205.254766
G02 X271.646480 Y943.848120 Z-0.125000 I-1.045824 J-0.461930
G01 X271.569145 Y943.770535 Z-0.125000
G02 X225.751950 Y943.693830 Z-0.125000 I-45.817195 J13683.671297
G02 X180.087901 Y943.921906 Z-0.125000 I0.000000 J4571.416903
G02 X179.859380 Y944.152810 Z-0.125000 I0.002306 J0.230816
G02 X179.948721 Y944.593340 Z-0.125000 I1.132542 J-0.000359
G02 X183.859380 Y953.617660 Z-0.125000 I500.095439 J-211.355211
G03 X187.853743 Y962.626810 Z-0.125000 I-6895.975988 J3062.840904
G03 X189.146480 Y965.564920 Z-0.125000 I-675.187385 J298.828625
G02 X190.436455 Y968.503897 Z-0.125000 I1157.859424 J-506.454761
G02 X194.732420 Y978.246560 Z-0.125000 I11441.559271 J-5039.264220
G03 X199.026720 Y987.989315 Z-0.125000 I-8508.313239 J3756.014864
G03 X200.556640 Y991.478980 Z-0.125000 I-1245.189125 J547.989216
G02 X202.087023 Y994.968608 Z-0.125000 I1155.271421 J-504.566177
G02 X206.302730 Y1004.527810 Z-0.125000 I8714.180155 J-3837.334374
G03 X210.515164 Y1014.088557 Z-0.125000 I-5339.491396 J2358.270608
G03 X213.005860 Y1019.781720 Z-0.125000 I-1662.906477 J730.894754
G02 X215.505282 Y1025.470910 Z-0.125000 I875.336856 J-381.166639
G02 X216.998050 Y1028.787578 Z-0.125000 I290.532283 J-128.768661
G03 X218.496612 Y1032.101629 Z-0.125000 I-416.413012 J190.291249
G03 X220.369140 Y1036.322734 Z-0.125000 I-665.129194 J297.584466
G01 X223.724610 Y1043.949688 Z-0.125000
G02 X225.297753 Y1047.232883 Z-0.125000 I52.031311 J-22.912311
G02 X225.490230 Y1047.350078 Z-0.125000 I0.192889 J-0.100139
G01 X225.490230 Y1047.350078 Z-0.125000
G00 Z0.500000
M5
G4 P1.0
G1 F1000.0
(End cutting path id: path508)


(Footer)
M5
G00 X0.0000 Y0.0000
M2
(Using default footer. To add your own footer create file "footer" in the output dir.)
(end)
%