%
(Header)
(Generated by gcodetools from Inkscape.)
(Using default header. To add your own header create file "header" in the output dir.)
M3
(Header end.)
G21 (All units in mm)

(Start cutting path id: path117)
(Change tool to Laser Engraver)

G00 Z0.500000
G00 X0.000000 Y6.318000
M3 S90.0
G4 P1.0
G01 Z-0.125000 F500.0(Penetrate)
G02 X0.185828 Y7.349685 Z-0.125000 I2.956787 J0.000000 F500.000000
G02 X42.072199 Y119.318000 Z-0.125000 I36039.706563 J-13418.321464
G03 X84.095608 Y231.270882 Z-0.125000 I-129022.211616 J48494.531157
G03 X92.780299 Y254.586000 Z-0.125000 I-5577.095374 J2090.697516
G02 X101.496124 Y277.887859 Z-0.125000 I3377.270763 J-1249.953086
G02 X103.363600 Y282.586000 Z-0.125000 I139.427512 J-52.701165
G03 X105.232040 Y287.283973 Z-0.125000 I-138.843318 J57.940187
G03 X120.516800 Y327.919300 Z-0.125000 I-10385.084976 J3929.486206
G02 X135.752873 Y368.574654 Z-0.125000 I27312.601207 J-10212.533535
G02 X183.369200 Y495.252700 Z-0.125000 I264265.019110 J-99260.960486
G03 X230.989695 Y621.929020 Z-0.125000 I-308046.105271 J115873.698924
G03 X241.976500 Y651.252700 Z-0.125000 I-16480.622643 J6191.573215
G02 X303.525107 Y815.506219 Z-0.125000 I88474.521203 J-33059.264349
G02 X370.241500 Y992.586000 Z-0.125000 I102909.693408 J-38671.035242
G03 X382.762712 Y1025.945253 Z-0.125000 I-7929.525207 J2995.333124
G03 X387.894400 Y1039.919300 Z-0.125000 I-1386.593160 J517.127766
G01 X392.955900 Y1053.919300 Z-0.125000
G01 X570.024900 Y1053.919300 Z-0.125000
G01 X747.093900 Y1053.919300 Z-0.125000
G01 X752.910700 Y1038.586000 Z-0.125000
G02 X798.704564 Y917.354679 Z-0.125000 I-42811.579810 J-16240.891548
G02 X829.388800 Y835.252700 Z-0.125000 I-19573.921244 J-7362.209222
G03 X834.366095 Y821.928908 Z-0.125000 I3437.084076 J1276.380930
G03 X881.997600 Y695.252700 Z-0.125000 I309591.264277 J116336.980904
G02 X929.624963 Y568.574757 Z-0.125000 I-267331.558311 J-100581.511789
G02 X939.354770 Y542.586000 Z-0.125000 I-11254.458836 J-4228.318559
G03 X949.087686 Y516.598504 Z-0.125000 I10147.385771 J3785.613495
G03 X961.412470 Y483.919300 Z-0.125000 I16089.667385 J6049.466739
G02 X973.748473 Y451.244500 Z-0.125000 I-24457.576074 J-9252.350572
G02 X978.995270 Y437.252700 Z-0.125000 I-4470.088589 J-1684.221714
G03 X990.839070 Y405.684061 Z-0.125000 I9155.768386 J3417.019637
G03 X999.361070 Y383.252700 Z-0.125000 I4634.715181 J1747.961182
G02 X1006.976786 Y363.238505 Z-0.125000 I-5260.084242 J-2013.000771
G02 X1008.945600 Y357.919300 Z-0.125000 I-368.427330 J-139.391144
G03 X1010.907578 Y352.597570 Z-0.125000 I454.004735 J164.356741
G03 X1024.960900 Y315.252700 Z-0.125000 I22376.344389 J8399.169856
G02 X1039.031447 Y277.914020 Z-0.125000 I-49848.683568 J-18806.094118
G02 X1042.777500 Y267.919300 Z-0.125000 I-3551.246280 J-1336.717650
G03 X1046.519786 Y257.923104 Z-0.125000 I4943.225169 J1844.901600
G03 X1053.292300 Y239.919300 Z-0.125000 I15891.540404 J5967.665033
G02 X1060.057176 Y221.912666 Z-0.125000 I-9172.626405 J-3456.319630
G02 X1065.278400 Y207.919300 Z-0.125000 I-5506.956157 J-2062.733740
G03 X1070.494208 Y193.923862 Z-0.125000 I7938.918376 J2950.700286
G03 X1074.495800 Y183.252700 Z-0.125000 I4654.785369 J1739.417421
G03 X1078.510065 Y172.586131 Z-0.125000 R136965.941137
G03 X1085.034600 Y155.252700 Z-0.125000 R422327.489715
G02 X1091.540912 Y137.912304 Z-0.125000 I-8086.104814 J-3043.888484
G02 X1100.492800 Y113.919300 Z-0.125000 I-15443.627860 J-5775.746968
G03 X1109.483402 Y89.942041 Z-0.125000 I4997.067494 J1860.044807
G03 X1110.722600 Y86.835700 Z-0.125000 I84.841309 J32.044995
G02 X1111.959801 Y83.728931 Z-0.125000 I-80.860427 J-34.000572
G02 X1116.743500 Y70.835700 Z-0.125000 I-1388.604108 J-522.539616
G03 X1121.530234 Y57.943249 Z-0.125000 I1336.518330 J488.890277
G03 X1123.368700 Y53.252700 Z-0.125000 I178.451069 J67.238522
G02 X1125.217826 Y48.565711 Z-0.125000 I-211.430291 J-86.122402
G02 X1132.532600 Y29.252700 Z-0.125000 I-3589.078625 J-1370.399946
G03 X1139.809287 Y9.924486 Z-0.125000 I13701.858379 J5147.442476
G03 X1140.709100 Y7.580900 Z-0.125000 I201.839780 J76.151273
G02 X1139.918696 Y6.408674 Z-0.125000 I-0.800594 J-0.312767
G02 X972.016970 Y5.580900 Z-0.125000 I-143.711415 J12121.137035
G01 X802.411300 Y5.919300 Z-0.125000
G01 X798.039600 Y20.586000 Z-0.125000
G01 X785.523500 Y62.586000 Z-0.125000
G01 X764.264900 Y133.919300 Z-0.125000
G01 X751.150800 Y177.919300 Z-0.125000
G01 X565.575400 Y178.257300 Z-0.125000
G03 X380.913409 Y177.680410 Z-0.125000 I-34.006879 J-18669.776320
G03 X380.000000 Y176.759600 Z-0.125000 I0.007431 J-0.920810
G02 X379.763960 Y174.958497 Z-0.125000 I-6.989684 J-0.000000
G02 X375.465000 Y159.754900 Z-0.125000 I-510.757732 J136.211975
G03 X370.968929 Y144.574556 Z-0.125000 I2965.902304 J-886.688512
G03 X365.342200 Y125.252700 Z-0.125000 I4791.700208 J-1405.873982
G02 X359.682800 Y105.940837 Z-0.125000 I-2601.923852 J752.016531
G02 X356.627400 Y95.919300 Z-0.125000 I-702.865602 J208.815475
G03 X353.581076 Y85.894972 Z-0.125000 I621.032425 J-194.202485
G03 X344.625900 Y55.252700 Z-0.125000 I5792.382268 J-1709.448190
G02 X335.722670 Y24.594398 Z-0.125000 I-16373.919430 J4738.395972
G02 X332.875700 Y14.931800 Z-0.125000 I-1630.385026 J475.122924
G01 X330.000000 Y5.277600 Z-0.125000
G01 X165.000000 Y5.265600 Z-0.125000
G02 X0.530917 Y5.783669 Z-0.125000 I-2.779558 J25224.492977
G02 X-0.000000 Y6.318000 Z-0.125000 I0.003425 J0.534331
G01 X0.000000 Y6.318000 Z-0.125000
G00 Z0.500000
M5
G4 P1.0
G1 F1000.0
(Change tool to Laser Engraver)

G00 Z0.500000
G00 X318.503400 Y56.252700
M3 S90.0
G4 P1.0
G01 Z-0.125000 F500.0(Penetrate)
G02 X325.645708 Y80.574542 Z-0.125000 I7681.292800 J-2242.464787 F500.000000
G02 X330.023300 Y95.252700 Z-0.125000 I2795.290987 J-825.671620
G03 X334.406540 Y109.928993 Z-0.125000 I-3286.242118 J989.465800
G03 X340.490100 Y130.586000 Z-0.125000 I-6492.457225 J1923.275534
G02 X359.523020 Y190.269812 Z-0.125000 I1258.784804 J-368.544589
G02 X363.086800 Y196.005100 Z-0.125000 I14.403633 J-4.975225
G02 X368.184266 Y200.118694 Z-0.125000 I20.767255 J-20.519158
G02 X373.051500 Y202.344000 Z-0.125000 I10.460335 J-16.443543
G02 X378.421622 Y203.151249 Z-0.125000 I5.510591 J-18.392869
G02 X566.821400 Y203.761600 Z-0.125000 I169.065716 J-23108.851360
G02 X755.286787 Y203.192417 Z-0.125000 I-36.255159 J-43206.814063
G02 X759.018100 Y202.761600 Z-0.125000 I-0.089180 J-17.146298
G02 X762.375181 Y201.317113 Z-0.125000 I-2.255031 J-9.864117
G02 X767.965800 Y196.797500 Z-0.125000 I-21.715489 J-32.578893
G02 X772.565019 Y189.806405 Z-0.125000 I-13.547619 J-13.920935
G02 X786.631200 Y147.919300 Z-0.125000 I-505.932260 J-193.203332
G03 X789.559473 Y137.924658 Z-0.125000 I2734.598660 J795.768180
G03 X793.317200 Y125.252700 Z-0.125000 I4396.092147 J1296.718642
G02 X797.080765 Y112.582297 Z-0.125000 I-6455.775202 J-1924.491094
G02 X801.801600 Y96.586000 Z-0.125000 I-10251.370616 J-3034.084825
G03 X812.669759 Y59.882658 Z-0.125000 I10863.560578 J3196.827984
G03 X819.876900 Y35.919300 Z-0.125000 I4650.704484 J1385.665266
G01 X820.888900 Y32.586000 Z-0.125000
G01 X962.422670 Y32.246600 Z-0.125000
G01 X1103.956600 Y31.907200 Z-0.125000
G01 X1099.380700 Y44.246600 Z-0.125000
G03 X1094.779869 Y56.576620 Z-0.125000 I-3037.284846 J-1126.310975
G03 X1089.992000 Y69.252700 Z-0.125000 I-3215.345688 J-1207.222536
G02 X1085.214948 Y81.932591 Z-0.125000 I2242.956639 J852.256556
G02 X1082.023500 Y90.586000 Z-0.125000 I1042.857070 J389.529446
G03 X1078.833010 Y99.239696 Z-0.125000 I-1074.094776 J-391.087941
G03 X1076.300000 Y105.919300 Z-0.125000 I-643.036186 J-240.029237
G02 X1073.760433 Y112.596773 Z-0.125000 I783.449528 J301.782015
G02 X1066.788400 Y131.252700 Z-0.125000 I6111.468146 J2294.589093
G03 X1059.797410 Y149.900807 Z-0.125000 I-3658.052917 J-1360.733259
G03 X1058.529700 Y153.112300 Z-0.125000 I-109.568500 J-41.395285
G02 X1056.331388 Y158.696057 Z-0.125000 I177.684181 J73.178456
G02 X979.305470 Y363.943000 Z-0.125000 I240259.064959 J90282.487046
G03 X957.498026 Y421.942690 Z-0.125000 I-27691.113653 J-10378.549171
G03 X956.171170 Y425.276300 Z-0.125000 I-92.673323 J-34.955328
G02 X954.848178 Y428.611301 Z-0.125000 I85.917080 J36.013147
G02 X941.946070 Y463.252700 Z-0.125000 I9261.582083 J3469.177944
G03 X929.054142 Y497.898789 Z-0.125000 I-11109.621516 J-4114.206316
G03 X925.993770 Y505.919300 Z-0.125000 I-597.600656 J-223.431320
G02 X919.684373 Y522.432443 Z-0.125000 I1313.665064 J511.391531
G02 X885.253000 Y614.586000 Z-0.125000 I40872.579170 J15323.748113
G03 X854.932032 Y695.548850 Z-0.125000 I-21357.133088 J-7952.187504
G03 X840.053000 Y734.586000 Z-0.125000 I-4988.084876 J-1878.857290
G02 X836.243433 Y744.603720 Z-0.125000 I1067.290465 J411.605420
G02 X829.305000 Y763.252700 Z-0.125000 I3691.172676 J1383.931935
G03 X822.377050 Y781.905519 Z-0.125000 I-4742.182178 J-1750.708004
G03 X819.341000 Y789.919300 Z-0.125000 I-881.727084 J-329.463487
G02 X810.053516 Y814.297383 Z-0.125000 I4493.135951 J1725.738686
G02 X803.974000 Y830.586000 Z-0.125000 I1999.959505 J755.737964
G03 X785.729514 Y879.598693 Z-0.125000 I-7693.034748 J-2835.753482
G03 X774.655500 Y908.586000 Z-0.125000 I-2698.809312 J-1014.416492
G02 X770.882597 Y918.458841 Z-0.125000 I935.247225 J363.061766
G02 X750.583500 Y972.586000 Z-0.125000 I28091.976964 J10566.094443
G03 X743.602020 Y991.252156 Z-0.125000 I-117248.749312 J-43840.016809
G03 X738.362600 Y1005.252700 Z-0.125000 I-66008.922083 J-24695.576799
G02 X733.138860 Y1019.259067 Z-0.125000 I5714.510331 J2139.230682
G02 X731.426800 Y1023.919300 Z-0.125000 I632.147312 J234.880642
G01 X729.731800 Y1028.586000 Z-0.125000
G01 X570.524000 Y1028.924700 Z-0.125000
G01 X411.316200 Y1029.263400 Z-0.125000
G01 X408.927300 Y1022.924700 Z-0.125000
G02 X406.537019 Y1016.586495 Z-0.125000 I-14629.279513 J5513.428041
G02 X402.510100 Y1005.919300 Z-0.125000 I-45175.708624 J17047.874622
G03 X398.504674 Y995.244230 Z-0.125000 I2502.403662 J-945.023569
G03 X393.314800 Y981.252700 Z-0.125000 I4292.460966 J-1600.159590
G02 X388.115036 Y967.265061 Z-0.125000 I-2990.319353 J1103.660845
G02 X385.327400 Y959.919300 Z-0.125000 I-826.732352 J309.534055
G03 X382.533090 Y952.576232 Z-0.125000 I1041.356084 J-400.477876
G03 X378.801300 Y942.586000 Z-0.125000 I1917.950947 J-722.130918
G02 X358.451867 Y888.063740 Z-0.125000 I-11751.051370 J4354.805590
G02 X355.246100 Y879.919300 Z-0.125000 I-265.191062 J99.679827
G03 X349.156674 Y864.489681 Z-0.125000 I527.333033 J-217.032749
G03 X316.695900 Y777.919300 Z-0.125000 I16574.464542 J-6264.198074
G02 X312.217028 Y765.924855 Z-0.125000 I-4839.014790 J1800.113411
G02 X306.700500 Y751.252700 Z-0.125000 I-7214.399141 J2704.141832
G03 X301.190222 Y736.578070 Z-0.125000 I5085.741157 J-1918.052015
G03 X295.983400 Y722.586000 Z-0.125000 I4614.737940 J-1725.231624
G02 X290.746360 Y708.605434 Z-0.125000 I-1895.804272 J702.186206
G02 X282.598900 Y687.252700 Z-0.125000 I-4439.990692 J1681.915219
G03 X274.488061 Y665.887507 Z-0.125000 I2604.306156 J-1000.891316
G03 X272.600200 Y660.586000 Z-0.125000 I158.445555 J-59.409184
G02 X270.722568 Y655.280777 Z-0.125000 I-181.057865 J61.095379
G02 X264.941600 Y639.919300 Z-0.125000 I-1525.233818 J565.221071
G03 X259.128807 Y624.568617 Z-0.125000 I2552.938516 J-975.488724
G03 X244.178500 Y584.586000 Z-0.125000 I17304.759700 J-6493.385322
G02 X229.215253 Y544.609456 Z-0.125000 I-13435.834012 J5006.252837
G02 X228.065000 Y541.730700 Z-0.125000 I-70.825552 J26.630312
G03 X221.842067 Y526.163011 Z-0.125000 I379.622526 J-160.775587
G03 X158.137300 Y355.919300 Z-0.125000 I45357.663907 J-17069.764379
G02 X141.589865 Y311.704834 Z-0.125000 I-11478.523887 J4270.678476
G02 X109.951400 Y227.919300 Z-0.125000 I-41273.930054 J15537.684710
G03 X97.120069 Y193.901795 Z-0.125000 I12357.795133 J-4680.762656
G03 X92.672699 Y181.919300 Z-0.125000 I1524.390114 J-572.602570
G02 X88.226464 Y169.936300 Z-0.125000 I-1573.100219 J576.874923
G02 X70.649699 Y123.252700 Z-0.125000 I-23842.560668 J8950.272257
G03 X37.649059 Y34.969236 Z-0.125000 I13164.641730 J-4971.294563
G03 X37.333399 Y33.206400 Z-0.125000 I4.764535 J-1.762836
G03 X37.973882 Y32.559872 Z-0.125000 I0.646556 J0.000000
G03 X174.366500 Y31.919300 Z-0.125000 I136.392618 J14520.247515
G01 X311.399600 Y31.919300 Z-0.125000
G01 X318.503400 Y56.252700 Z-0.125000
G00 Z0.500000
M5
G4 P1.0
G1 F1000.0
(Change tool to Laser Engraver)

G00 Z0.500000
G00 X448.000000 Y380.187300
M3 S90.0
G4 P1.0
G01 Z-0.125000 F500.0(Penetrate)
G02 X438.420854 Y384.029797 Z-0.125000 I6.705458 J30.577763 F500.000000
G02 X431.016900 Y390.531700 Z-0.125000 I14.843563 J24.369435
G02 X429.685675 Y392.754732 Z-0.125000 I7.396741 J5.939520
G02 X427.368200 Y399.100900 Z-0.125000 I59.307840 J25.254092
G02 X426.532145 Y405.643453 Z-0.125000 I18.569557 J5.697649
G02 X428.121100 Y416.393400 Z-0.125000 I52.674166 J-2.293391
G02 X431.035290 Y427.123271 Z-0.125000 I353.987729 J-90.380989
G02 X433.349000 Y434.545200 Z-0.125000 I171.545266 J-49.405858
G03 X435.735233 Y441.948011 Z-0.125000 I-303.808606 J102.016110
G03 X444.073600 Y469.252700 Z-0.125000 I-4129.000725 J1275.849013
G02 X470.476920 Y556.251252 Z-0.125000 I27618.857901 J-8334.582244
G02 X476.629700 Y575.919300 Z-0.125000 I1417.205945 J-432.549932
G03 X479.773730 Y585.937491 Z-0.125000 I-826.347108 J264.836736
G03 X481.135400 Y590.586000 Z-0.125000 I-176.821217 J54.319236
G02 X484.341892 Y601.566964 Z-0.125000 I448.889456 J-125.119152
G02 X505.361700 Y669.919300 Z-0.125000 I17422.293462 J-5320.320367
G03 X512.316401 Y692.605205 Z-0.125000 I-4002.752330 J1239.512089
G03 X514.668000 Y700.586000 Z-0.125000 I-492.107395 J149.339880
G02 X533.385433 Y763.743008 Z-0.125000 I3281.042507 J-938.029187
G02 X542.161500 Y790.172200 Z-0.125000 I582.992358 J-178.916536
G02 X554.337424 Y804.392706 Z-0.125000 I24.713881 J-8.837688
G02 X572.256200 Y806.536200 Z-0.125000 I11.650684 J-21.426435
G02 X580.660586 Y803.198625 Z-0.125000 I-9.861629 J-37.083057
G02 X586.201775 Y798.711800 Z-0.125000 I-9.249775 J-17.088462
G02 X590.086163 Y792.507011 Z-0.125000 I-19.111481 J-16.282641
G02 X594.365300 Y780.586000 Z-0.125000 I-84.861048 J-37.190033
G03 X597.591927 Y769.645663 Z-0.125000 I518.992165 J147.120038
G03 X633.387500 Y653.252700 Z-0.125000 I58824.482408 J18027.221916
G02 X637.290364 Y640.584055 Z-0.125000 I-12885.673764 J-3976.666483
G02 X643.228600 Y621.252700 Z-0.125000 I-29957.583229 J-9212.972889
G03 X652.731509 Y590.335082 Z-0.125000 I31411.877662 J9637.913565
G03 X668.681800 Y538.586000 Z-0.125000 I87823.368172 J27040.873201
G02 X678.323287 Y507.244665 Z-0.125000 I-18655.224267 J-5756.031568
G02 X684.630700 Y486.586000 Z-0.125000 I-8101.560793 J-2484.825264
G03 X690.966648 Y465.936359 Z-0.125000 I3884.723795 J1180.656373
G03 X695.368500 Y451.919300 Z-0.125000 I1794.079150 J555.704629
G02 X706.941156 Y410.378606 Z-0.125000 I-563.082453 J-179.249224
G02 X707.297000 Y402.141300 Z-0.125000 I-21.005839 J-5.033773
G02 X699.779482 Y388.170808 Z-0.125000 I-23.207765 J3.480259
G02 X682.666700 Y379.995800 Z-0.125000 I-22.422398 J24.938273
G02 X671.698248 Y379.080020 Z-0.125000 I-11.521975 J71.857223
G02 X564.212363 Y378.715113 Z-0.125000 I-97.069507 J12761.953836
G02 X456.176908 Y379.262727 Z-0.125000 I10.367505 J12702.436779
G02 X448.000000 Y380.187300 Z-0.125000 I0.372036 J39.910781
G01 X448.000000 Y380.187300 Z-0.125000
G00 Z0.500000
M5
G4 P1.0
G1 F1000.0
(Change tool to Laser Engraver)

G00 Z0.500000
G00 X682.666700 Y405.814100
M3 S90.0
G4 P1.0
G01 Z-0.125000 F500.0(Penetrate)
G03 X682.410599 Y407.526372 Z-0.125000 I-5.852115 J-0.000000 F500.000000
G03 X649.384300 Y514.586000 Z-0.125000 I-23408.129205 J-7162.435012
G02 X645.463276 Y527.258305 Z-0.125000 I4443.215398 J1381.748616
G02 X629.476300 Y579.252700 Z-0.125000 I74752.028827 J23012.814792
G03 X613.495108 Y631.248857 Z-0.125000 I-108427.352640 J-33296.940368
G03 X591.947100 Y701.252700 Z-0.125000 I-195514.709547 J-60143.688489
G02 X570.395998 Y771.255598 Z-0.125000 I259507.450117 J79930.092091
G02 X568.868700 Y776.252700 Z-0.125000 I1316.204730 J405.012709
G03 X567.130379 Y780.954465 Z-0.125000 I-40.416823 J-12.270547
G03 X566.675400 Y781.250800 Z-0.125000 I-0.453646 J-0.199062
G03 X566.231243 Y780.938561 Z-0.125000 I0.000000 J-0.472024
G03 X562.237900 Y768.917500 Z-0.125000 I242.206398 J-87.133708
G03 X558.476888 Y756.585663 Z-0.125000 I64590.130359 J-19710.654691
G03 X553.803400 Y741.252700 Z-0.125000 R110179.955809
G02 X549.094653 Y725.930627 Z-0.125000 I-3209.093336 J977.827118
G02 X545.331900 Y713.919300 Z-0.125000 I-1978.928731 J613.338189
G03 X541.584427 Y701.903303 Z-0.125000 I1397.490402 J-442.432757
G03 X535.297900 Y681.252700 Z-0.125000 I4109.323864 J-1262.256674
G02 X529.037522 Y660.593746 Z-0.125000 I-8376.750245 J2527.167356
G02 X518.455300 Y625.919300 Z-0.125000 I-23515.305712 J7157.634575
G03 X507.862103 Y591.248333 Z-0.125000 I41610.215035 J-12732.326926
G03 X504.014900 Y578.586000 Z-0.125000 I5536.337292 J-1689.024348
G02 X500.168267 Y565.923509 Z-0.125000 I-5765.971764 J1744.680314
G02 X489.375700 Y530.586000 Z-0.125000 I-44703.133426 J13633.655720
G03 X478.579808 Y495.249522 Z-0.125000 I59605.223714 J-18229.718712
G03 X475.336900 Y484.586000 Z-0.125000 I5390.484062 J-1645.137460
G02 X472.087336 Y473.924517 Z-0.125000 I-3305.681083 J1001.728403
G02 X462.052700 Y441.252700 Z-0.125000 I-31069.949146 J9524.769236
G03 X452.234607 Y408.550848 Z-0.125000 I2383.733519 J-733.494229
G03 X452.000400 Y406.919300 Z-0.125000 I5.579040 J-1.633451
G03 X452.827529 Y406.079942 Z-0.125000 I0.839255 J-0.000191
G03 X567.333400 Y405.252700 Z-0.125000 I114.505871 J7924.467222
G03 X682.386656 Y405.532690 Z-0.125000 I0.000000 J23638.965349
G03 X682.666700 Y405.814100 Z-0.125000 I-0.001370 J0.281410
G01 X682.666700 Y405.814100 Z-0.125000
G00 Z0.500000
M5
G4 P1.0
G1 F1000.0
(End cutting path id: path117)


(Footer)
M5
G00 X0.0000 Y0.0000
M2
(Using default footer. To add your own footer create file "footer" in the output dir.)
(end)
%