%
(Header)
(Generated by gcodetools from Inkscape.)
(Using default header. To add your own header create file "header" in the output dir.)
M3
(Header end.)
G21 (All units in mm)

(Start cutting path id: path3440)
(Change tool to Laser Engraver)

G00 Z0.500000
G00 X22.072899 Y29.290540
M3 S90.0
G4 P1.0
G01 Z-0.125000 F500.0(Penetrate)
G02 X22.097206 Y29.408391 Z-0.125000 I0.297852 J0.000000 F500.000000
G02 X27.685526 Y42.318110 Z-0.125000 I3743.817694 J-1612.948103
G03 X33.291915 Y55.225542 Z-0.125000 I-13365.881963 J5813.189407
G03 X34.450238 Y57.912920 Z-0.125000 I-578.013591 J250.730673
G02 X35.612527 Y60.598325 Z-0.125000 I350.949846 J-150.302877
G02 X35.862113 Y61.140990 Z-0.125000 I14.577058 J-6.375638
G03 X36.111809 Y61.683609 Z-0.125000 I-14.473323 J6.988918
G03 X38.150427 Y66.367390 Z-0.125000 I-1076.510472 J471.337309
G02 X40.182830 Y71.054092 Z-0.125000 I2833.938993 J-1226.162864
G02 X46.535247 Y85.658950 Z-0.125000 I27467.153923 J-11938.204229
G03 X52.888201 Y100.263571 Z-0.125000 I-31967.129190 J13914.271616
G03 X54.353750 Y103.643920 Z-0.125000 I-1709.152559 J743.010404
G02 X62.563824 Y122.578516 Z-0.125000 I9184.079024 J-3970.985372
G02 X71.464941 Y142.995640 Z-0.125000 I10696.447018 J-4651.109826
G03 X73.135697 Y146.842420 Z-0.125000 I-823.269546 J359.853482
G03 X73.819926 Y148.452610 Z-0.125000 I-143.624664 J61.981871
G01 X74.495158 Y150.066650 Z-0.125000
G01 X98.117036 Y150.066650 Z-0.125000
G01 X121.738920 Y150.066650 Z-0.125000
G01 X122.514910 Y148.298890 Z-0.125000
G02 X128.624951 Y134.320237 Z-0.125000 I-4442.168716 J-1949.987668
G02 X132.717470 Y124.856950 Z-0.125000 I-2032.186662 J-884.461574
G03 X133.381311 Y123.321219 Z-0.125000 I356.188206 J153.055937
G03 X139.735730 Y108.716600 Z-0.125000 I32247.905502 J14022.269148
G02 X146.089629 Y94.111752 Z-0.125000 I-27739.599780 J-12076.916932
G02 X147.387460 Y91.115930 Z-0.125000 I-1164.882401 J-506.422150
G03 X148.685713 Y88.120287 Z-0.125000 I1055.223410 J455.534019
G03 X150.330070 Y84.352350 Z-0.125000 I1674.658486 J728.591209
G02 X151.975885 Y80.585050 Z-0.125000 I-2530.042369 J-1107.539341
G02 X152.675710 Y78.972230 Z-0.125000 I-463.156544 J-201.928212
G03 X154.255435 Y75.333421 Z-0.125000 I950.982903 J410.690340
G03 X155.392610 Y72.746670 Z-0.125000 I481.559131 J210.157275
G02 X156.408778 Y70.438798 Z-0.125000 I-546.245382 J-241.892240
G02 X156.671230 Y69.826030 Z-0.125000 I-38.241781 J-16.741781
G03 X156.932797 Y69.212886 Z-0.125000 I47.072639 J19.718810
G03 X158.807740 Y64.907070 Z-0.125000 I2320.770295 J1008.005022
G02 X160.684899 Y60.602199 Z-0.125000 I-5141.913310 J-2244.717896
G02 X161.184570 Y59.450090 Z-0.125000 I-368.750642 J-160.611820
G03 X161.683753 Y58.297780 Z-0.125000 I513.470923 J221.752572
G03 X162.587290 Y56.222020 Z-0.125000 I1660.550138 J721.569539
G02 X163.489853 Y54.145854 Z-0.125000 I-948.152597 J-413.420587
G02 X164.186300 Y52.532800 Z-0.125000 I-573.548404 J-248.590363
G03 X164.882050 Y50.919443 Z-0.125000 I829.625710 J356.814183
G03 X165.415940 Y49.689020 Z-0.125000 I484.218120 J209.374890
G03 X165.951464 Y48.459299 Z-0.125000 I14527.627386 J6338.340469
G03 X166.821880 Y46.460950 Z-0.125000 R39159.685277
G02 X167.689950 Y44.461592 Z-0.125000 I-838.287106 J-365.150847
G02 X168.884080 Y41.695700 Z-0.125000 I-1601.979562 J-693.270014
G03 X170.083155 Y38.932137 Z-0.125000 I518.412706 J223.290824
G03 X170.248780 Y38.573290 Z-0.125000 I8.888790 J3.884952
G02 X170.414139 Y38.214344 Z-0.125000 I-8.468378 J-4.118768
G02 X171.052010 Y36.728670 Z-0.125000 I-143.464069 J-62.475767
G03 X171.690231 Y35.243115 Z-0.125000 I138.281867 J58.528479
G03 X171.935840 Y34.701550 Z-0.125000 I18.648196 J8.130804
G02 X172.182810 Y34.160538 Z-0.125000 I-22.042615 J-10.389252
G02 X173.158340 Y31.934630 Z-0.125000 I-371.642966 J-164.203554
G03 X174.129015 Y29.706502 Z-0.125000 I1420.490355 J617.505243
G03 X174.249130 Y29.436130 Z-0.125000 I21.077732 J9.202109
G01 X174.162944 Y29.301069 Z-0.125000
G02 X151.744760 Y29.205560 Z-0.125000 I-19.188082 J1872.802824
G01 X129.118530 Y29.244560 Z-0.125000
G01 X128.535320 Y30.935460 Z-0.125000
G02 X127.952176 Y32.626374 Z-0.125000 I25019.904809 J8644.008596
G02 X126.865610 Y35.777560 Z-0.125000 R95247.199449
G01 X124.029610 Y44.001460 Z-0.125000
G01 X122.280120 Y49.074140 Z-0.125000
G01 X97.523453 Y49.113140 Z-0.125000
G03 X72.872026 Y49.046453 Z-0.125000 I-4.530692 J-2881.530336
G03 X72.766780 Y48.940470 Z-0.125000 I0.000740 J-0.105983
G02 X72.735656 Y48.734065 Z-0.125000 I-0.699965 J0.000000
G02 X72.161785 Y46.980030 Z-0.125000 I-52.281571 J16.134161
G03 X71.561844 Y45.229510 Z-0.125000 I303.006362 J-104.824878
G03 X70.811353 Y43.002320 Z-0.125000 I489.675144 J-166.244742
G02 X70.056617 Y40.776655 Z-0.125000 I-266.137654 J89.008021
G02 X69.648752 Y39.620540 Z-0.125000 I-72.157798 J24.806502
G03 X69.242072 Y38.464001 Z-0.125000 I63.677243 J-23.040961
G03 X68.047688 Y34.932150 Z-0.125000 I592.501641 J-202.337111
G02 X66.860060 Y31.397913 Z-0.125000 I-1673.996389 J560.555012
G02 X66.480159 Y30.283630 Z-0.125000 I-166.872797 J56.271317
G01 X66.096532 Y29.170610 Z-0.125000
G01 X44.084715 Y29.169610 Z-0.125000
G02 X22.134119 Y29.229382 Z-0.125000 I-0.275877 J3929.294496
G01 X22.072899 Y29.290940 Z-0.125000
G01 X22.072899 Y29.290540 Z-0.125000
G00 Z0.500000
M5
G4 P1.0
G1 F500.0
(Change tool to Laser Engraver)

G00 Z0.500000
G00 X64.562822 Y35.047420
M3 S90.0
G4 P1.0
G01 Z-0.125000 F500.0(Penetrate)
G02 X65.515508 Y37.851051 Z-0.125000 I785.170714 J-265.240779 F500.000000
G02 X66.099629 Y39.543660 Z-0.125000 I286.775432 J-98.019362
G03 X66.684494 Y41.236011 Z-0.125000 I-336.369509 J117.194206
G03 X67.495954 Y43.617180 Z-0.125000 I-664.562764 J227.800074
G02 X70.026266 Y50.475520 Z-0.125000 I129.209367 J-43.774494
G02 X70.510464 Y51.159230 Z-0.125000 I1.663891 J-0.665047
G02 X71.180685 Y51.628294 Z-0.125000 I2.498530 J-2.856662
G02 X71.839804 Y51.890030 Z-0.125000 I1.374034 J-2.499392
G02 X72.552490 Y51.983086 Z-0.125000 I0.731127 J-2.823838
G02 X97.689674 Y52.053460 Z-0.125000 I22.557503 J-3567.921939
G02 X122.833442 Y51.987824 Z-0.125000 I-4.815674 J-6660.863341
G02 X123.329660 Y51.938170 Z-0.125000 I-0.011794 J-2.622162
G02 X123.785752 Y51.767113 Z-0.125000 I-0.289399 J-1.465206
G02 X124.523320 Y51.250580 Z-0.125000 I-2.547843 J-4.422972
G02 X125.148304 Y50.417807 Z-0.125000 I-1.484243 J-1.764810
G02 X127.013380 Y45.615500 Z-0.125000 I-51.636690 J-22.817510
G03 X127.403957 Y44.463437 Z-0.125000 I279.279380 J94.040091
G03 X127.905330 Y43.002300 Z-0.125000 I450.502242 J153.768376
G02 X128.407455 Y41.541434 Z-0.125000 I-658.268867 J-227.075186
G02 X129.037190 Y39.697370 Z-0.125000 I-1045.659270 J-358.114874
G03 X130.486833 Y35.466556 Z-0.125000 I1113.210429 J379.065781
G03 X131.448530 Y32.703220 Z-0.125000 I475.882606 J164.067832
G01 X131.583530 Y32.318930 Z-0.125000
G01 X150.464840 Y32.279830 Z-0.125000
G01 X169.346160 Y32.240730 Z-0.125000
G01 X168.735720 Y33.663320 Z-0.125000
G03 X168.122077 Y35.084515 Z-0.125000 I-315.148401 J-135.231619
G03 X167.483220 Y36.546220 Z-0.125000 I-334.459859 J-145.309478
G02 X166.845739 Y38.008514 Z-0.125000 I233.179108 J102.523557
G02 X166.420180 Y39.005710 Z-0.125000 I107.774732 J46.582882
G03 X165.994748 Y40.002932 Z-0.125000 I-111.181509 J-46.842550
G03 X165.656640 Y40.773460 Z-0.125000 I-66.948890 J-28.917778
G02 X165.317698 Y41.543638 Z-0.125000 I81.360106 J36.264835
G02 X164.387740 Y43.694090 Z-0.125000 I635.464501 J276.081486
G03 X163.455371 Y45.843400 Z-0.125000 I-379.015157 J-163.139538
G03 X163.286000 Y46.214250 Z-0.125000 I-11.471967 J-5.015273
G02 X162.992240 Y46.859129 Z-0.125000 I18.510108 J8.821211
G02 X152.717090 Y70.520550 Z-0.125000 I24919.327025 J10835.466596
G03 X149.808212 Y77.206452 Z-0.125000 I-2872.132723 J-1245.621282
G03 X149.630860 Y77.591560 Z-0.125000 I-9.698897 J-4.233200
G02 X149.454016 Y77.976873 Z-0.125000 I8.961636 J4.346304
G02 X147.733160 Y81.969790 Z-0.125000 I960.782864 J416.442593
G03 X146.013598 Y85.963421 Z-0.125000 I-1152.412340 J-493.834085
G03 X145.605050 Y86.888750 Z-0.125000 I-62.231849 J-26.923554
G02 X144.762779 Y88.793819 Z-0.125000 I136.522822 J61.498306
G02 X140.170030 Y99.416740 Z-0.125000 I4237.746749 J1838.465944
G03 X136.125878 Y108.748901 Z-0.125000 I-2220.178427 J-956.586264
G03 X134.140110 Y113.251330 Z-0.125000 I-518.500430 J-225.992225
G02 X133.631649 Y114.406841 Z-0.125000 I110.972157 J49.520859
G02 X132.706290 Y116.556260 Z-0.125000 I382.605658 J165.991687
G03 X131.782257 Y118.706264 Z-0.125000 I-492.144674 J-210.241404
G03 X131.377030 Y119.630610 Z-0.125000 I-91.555513 J-39.586293
G02 X130.137680 Y122.441927 Z-0.125000 I467.014368 J207.558933
G02 X129.326990 Y124.319000 Z-0.125000 I207.478708 J90.721695
G03 X126.893933 Y129.967657 Z-0.125000 I-797.587621 J-340.198194
G03 X125.415770 Y133.311480 Z-0.125000 I-280.913480 J-122.181331
G02 X124.912153 Y134.450359 Z-0.125000 I97.125851 J43.630214
G02 X122.204440 Y140.689930 Z-0.125000 I2913.684785 J1268.124852
G03 X121.273090 Y142.841896 Z-0.125000 I-12215.472466 J-5284.943404
G03 X120.574120 Y144.456010 Z-0.125000 I-6795.916428 J-2942.132964
G02 X119.877160 Y146.070980 Z-0.125000 I593.047720 J256.894706
G02 X119.648840 Y146.608060 Z-0.125000 I65.586903 J28.199002
G01 X119.422720 Y147.146070 Z-0.125000
G01 X98.183617 Y147.185170 Z-0.125000
G01 X76.944512 Y147.224270 Z-0.125000
G01 X76.625815 Y146.493490 Z-0.125000
G02 X76.306947 Y145.762785 Z-0.125000 I-1565.290778 J682.632317
G02 X75.769732 Y144.532970 Z-0.125000 I-4450.290900 J1943.271222
G03 X75.235264 Y143.301970 Z-0.125000 I259.932846 J-113.587456
G03 X74.543036 Y141.689200 Z-0.125000 I444.623811 J-191.795105
G02 X73.849537 Y140.076990 Z-0.125000 I-310.093943 J132.433015
G02 X73.477481 Y139.229710 Z-0.125000 I-85.998960 J37.258350
G03 X73.104559 Y138.382822 Z-0.125000 I107.902640 J-48.019796
G03 X72.606856 Y137.231380 Z-0.125000 I199.142291 J-86.761229
G02 X69.892842 Y130.947224 Z-0.125000 I-1218.507148 J522.523237
G02 X69.464477 Y130.006650 Z-0.125000 I-27.725412 J12.059126
G03 X68.650863 Y128.224927 Z-0.125000 I54.940293 J-26.164819
G03 X64.321691 Y118.247250 Z-0.125000 I1718.983435 J-751.770413
G02 X63.724276 Y116.864621 Z-0.125000 I-500.781322 J215.560376
G02 X62.988261 Y115.172900 Z-0.125000 I-749.497613 J325.077026
G03 X62.253051 Y113.480834 Z-0.125000 I527.096725 J-230.031449
G03 X61.558549 Y111.867970 Z-0.125000 I478.766024 J-207.113541
G02 X60.860173 Y110.256813 Z-0.125000 I-197.072039 J84.466454
G02 X59.772983 Y107.794450 Z-0.125000 I-461.625075 J202.346806
G03 X58.690501 Y105.330259 Z-0.125000 I270.409268 J-120.256571
G03 X58.439111 Y104.720100 Z-0.125000 I16.322461 J-7.081842
G02 X58.189017 Y104.109389 Z-0.125000 I-18.723340 J7.310895
G02 X57.417409 Y102.337480 Z-0.125000 I-158.445913 J67.943986
G03 X56.641702 Y100.567144 Z-0.125000 I265.277666 J-117.291652
G03 X54.647508 Y95.958190 Z-0.125000 I1793.667391 J-778.816727
G02 X52.651676 Y91.350133 Z-0.125000 I-1395.212162 J601.555079
G02 X52.497893 Y91.017480 Z-0.125000 I-7.418775 J3.227774
G03 X51.665931 Y89.218605 Z-0.125000 I39.583612 J-19.398863
G03 X43.169195 Y69.595620 Z-0.125000 I4705.136606 J-2048.971151
G02 X40.962131 Y64.499248 Z-0.125000 I-1191.815545 J513.108372
G02 X36.740956 Y54.838720 Z-0.125000 I-4288.903715 J1868.287270
G03 X35.028945 Y50.916335 Z-0.125000 I1281.360930 J-561.613017
G03 X34.435888 Y49.535460 Z-0.125000 I158.075465 J-68.707867
G02 X33.842989 Y48.154527 Z-0.125000 I-162.982299 J69.158130
G02 X31.497914 Y42.771890 Z-0.125000 I-2478.708390 J1076.706770
G03 X27.094621 Y32.591866 Z-0.125000 I1365.855958 J-596.833137
G03 X27.053350 Y32.390610 Z-0.125000 I0.470079 J-0.201256
G01 X27.127239 Y32.316119 Z-0.125000
G03 X45.334245 Y32.242230 Z-0.125000 I18.207006 J2243.165687
G01 X63.615140 Y32.242230 Z-0.125000
G01 X64.562822 Y35.047420 Z-0.125000
G00 Z0.500000
M5
G4 P1.0
G1 F500.0
(Change tool to Laser Engraver)

G00 Z0.500000
G00 X81.838316 Y72.393270
M3 S90.0
G4 P1.0
G01 Z-0.125000 F500.0(Penetrate)
G02 X80.537406 Y72.847472 Z-0.125000 I0.866292 J4.571314 F500.000000
G02 X79.572686 Y73.585860 Z-0.125000 I1.684734 J3.200550
G02 X79.392748 Y73.847033 Z-0.125000 I0.801321 J0.744652
G02 X79.085930 Y74.573780 Z-0.125000 I6.070037 J2.990786
G02 X78.975320 Y75.329071 Z-0.125000 I1.849236 J0.656558
G02 X79.186366 Y76.567410 Z-0.125000 I5.307461 J-0.267377
G02 X79.574576 Y77.802749 Z-0.125000 I36.078793 J-10.659240
G02 X79.883797 Y78.660100 Z-0.125000 I17.679941 J-5.892183
G03 X80.202482 Y79.514538 Z-0.125000 I-31.240321 J12.138547
G03 X81.314504 Y82.661460 Z-0.125000 I-422.645651 J151.119443
G02 X84.836323 Y92.689887 Z-0.125000 I2830.083141 J-988.246025
G02 X85.657659 Y94.958870 Z-0.125000 I145.678325 J-51.450131
G03 X86.077313 Y96.114493 Z-0.125000 I-84.925655 J31.493973
G03 X86.258732 Y96.649760 Z-0.125000 I-18.033835 J6.410625
G02 X86.686016 Y97.914364 Z-0.125000 I45.931397 J-14.814803
G02 X89.490639 Y105.795960 Z-0.125000 I1788.141188 J-631.860472
G03 X90.418667 Y108.412043 Z-0.125000 I-409.934920 J146.892728
G03 X90.732150 Y109.331470 Z-0.125000 I-50.308305 J17.666021
G02 X93.226777 Y116.606001 Z-0.125000 I335.822741 J-111.097428
G02 X94.399922 Y119.659710 Z-0.125000 I60.318916 J-21.420540
G02 X95.947873 Y121.282083 Z-0.125000 I2.867980 J-1.186762
G02 X98.414703 Y121.546280 Z-0.125000 I1.615842 J-3.438651
G02 X100.120461 Y120.593925 Z-0.125000 I-0.782675 J-3.405610
G02 X101.364160 Y118.554530 Z-0.125000 I-3.720285 J-3.667693
G03 X101.794191 Y117.294427 Z-0.125000 I53.132024 J17.428744
G03 X106.569910 Y103.874490 Z-0.125000 I6029.444891 J2138.123684
G02 X107.090605 Y102.413889 Z-0.125000 I-1309.116454 J-467.515430
G02 X107.882770 Y100.185270 Z-0.125000 I-3031.136666 J-1078.673722
G03 X109.150442 Y96.621006 Z-0.125000 I3211.357739 J1140.145793
G03 X111.278360 Y90.654780 Z-0.125000 I8995.353172 J3204.940652
G02 X112.564674 Y87.041203 Z-0.125000 I-1912.664280 J-682.881247
G02 X113.406010 Y84.659790 Z-0.125000 I-831.450342 J-295.084576
G03 X114.251043 Y82.279722 Z-0.125000 I398.241718 J140.053934
G03 X114.838490 Y80.663130 Z-0.125000 I184.165200 J66.008066
G02 X116.383142 Y75.869354 Z-0.125000 I-57.340516 J-21.122028
G02 X116.429810 Y74.924300 Z-0.125000 I-2.078373 J-0.576312
G02 X115.490459 Y73.360848 Z-0.125000 I-2.489881 J0.432051
G02 X113.144010 Y72.371190 Z-0.125000 I-3.022641 J3.890084
G02 X111.682881 Y72.265614 Z-0.125000 I-1.534614 J11.074939
G02 X97.341612 Y72.223544 Z-0.125000 I-12.951042 J1970.451736
G02 X82.926163 Y72.286688 Z-0.125000 I1.383829 J1961.425062
G02 X81.838316 Y72.393290 Z-0.125000 I0.049184 J6.105830
G01 X81.838316 Y72.393270 Z-0.125000
G00 Z0.500000
M5
G4 P1.0
G1 F500.0
(Change tool to Laser Engraver)

G00 Z0.500000
G00 X113.144010 Y75.347740
M3 S90.0
G4 P1.0
G01 Z-0.125000 F500.0(Penetrate)
G03 X113.110307 Y75.543904 Z-0.125000 I-0.587726 J-0.000000 F500.000000
G03 X108.703970 Y87.887860 Z-0.125000 I-2406.218963 J-851.973000
G02 X108.180811 Y89.349011 Z-0.125000 I453.954093 J163.360622
G02 X106.048150 Y95.343160 Z-0.125000 I7641.689733 J2722.216676
G03 X103.916220 Y101.337579 Z-0.125000 I-11073.954416 J-3935.096274
G03 X101.041560 Y109.408330 Z-0.125000 I-20213.953356 J-7195.325787
G02 X98.166514 Y117.478930 Z-0.125000 I26720.318523 J9523.330645
G02 X97.962791 Y118.054950 Z-0.125000 I135.344343 J48.191628
G03 X97.732979 Y118.592742 Z-0.125000 I-4.182231 J-1.469176
G01 X97.670197 Y118.631170 Z-0.125000
G01 X97.608981 Y118.590249 Z-0.125000
G03 X97.078211 Y117.209290 Z-0.125000 I24.769297 J-10.312538
G03 X96.576471 Y115.787559 Z-0.125000 I6711.199017 J-2369.408894
G03 X95.953012 Y114.019860 Z-0.125000 I10583.897728 J-3733.535459
G02 X95.324974 Y112.253800 Z-0.125000 I-329.724825 J116.260497
G02 X94.822871 Y110.868650 Z-0.125000 I-203.412666 J72.951477
G03 X94.322739 Y109.482788 Z-0.125000 I143.271782 J-52.487358
G03 X93.484278 Y107.102560 Z-0.125000 I421.503157 J-149.816755
G02 X92.649211 Y104.721102 Z-0.125000 I-857.007905 J299.175812
G02 X91.237399 Y100.723280 Z-0.125000 I-2417.806253 J851.588786
G03 X89.824155 Y96.725961 Z-0.125000 I4257.790697 J-1507.582244
G03 X89.310975 Y95.266310 Z-0.125000 I568.216942 J-200.592015
G02 X88.797865 Y93.806617 Z-0.125000 I-590.781638 J206.850832
G02 X87.358037 Y89.732470 Z-0.125000 I-4600.448435 J1623.534611
G03 X85.917769 Y85.658476 Z-0.125000 I6081.549032 J-2152.287157
G03 X85.485190 Y84.429210 Z-0.125000 I552.736310 J-195.198972
G02 X85.051745 Y83.200251 Z-0.125000 I-339.260013 J118.963722
G02 X83.713008 Y79.433390 Z-0.125000 I-3183.402979 J1129.255100
G03 X82.402804 Y75.661988 Z-0.125000 I244.073833 J-86.905768
G03 X82.371989 Y75.475160 Z-0.125000 I0.551923 J-0.186987
G01 X82.467438 Y75.378485 Z-0.125000
G03 X97.757974 Y75.283010 Z-0.125000 I15.290536 J1224.360346
G03 X113.111714 Y75.315278 Z-0.125000 I-0.000000 J3652.775892
G01 X113.144010 Y75.347710 Z-0.125000
G01 X113.144010 Y75.347740 Z-0.125000
G00 Z0.500000
M5
G4 P1.0
G1 F500.0
(End cutting path id: path3440)


(Footer)
M5
G00 X0.0000 Y0.0000
M2
(Using default footer. To add your own footer create file "footer" in the output dir.)
(end)
%