%
(Header)
(Generated by gcodetools from Inkscape.)
(Using default header. To add your own header create file "header" in the output dir.)
M3
(Header end.)
G21 (All units in mm)

(Start cutting path id: path266)
(Change tool to Laser Engraver)

G00 Z0.500000
G00 X2.333314 Y3.489267
M3 S90.0
G4 P1.0
G01 Z-0.125000 F500.0(Penetrate)
G02 X2.339650 Y3.524668 Z-0.125000 I0.102068 J-0.000000 F500.000000
G02 X3.766462 Y7.364793 Z-0.125000 I1242.682149 J-459.537734
G03 X5.197948 Y11.204395 Z-0.125000 I-4438.675377 J1657.019940
G03 X5.493787 Y12.004036 Z-0.125000 I-192.243128 J71.577697
G02 X5.790689 Y12.803226 Z-0.125000 I116.577576 J-42.854253
G02 X5.854300 Y12.964344 Z-0.125000 I4.801066 J-1.802389
G03 X5.917941 Y13.125457 Z-0.125000 I-4.787581 J1.984266
G03 X6.438606 Y14.519127 Z-0.125000 I-357.647548 J134.408635
G02 X6.957610 Y15.913474 Z-0.125000 I940.679663 J-349.346504
G02 X8.579615 Y20.258107 Z-0.125000 I9133.884655 J-3407.512413
G03 X10.201763 Y24.602685 Z-0.125000 I-10607.366191 J3962.965741
G03 X10.576018 Y25.608390 Z-0.125000 I-568.181705 J212.011322
G02 X12.672626 Y31.241767 Z-0.125000 I3049.626822 J-1131.790917
G02 X14.945249 Y37.314994 Z-0.125000 I3549.419087 J-1324.743689
G03 X15.371768 Y38.459097 Z-0.125000 I-273.467250 J102.599419
G03 X15.546579 Y38.938371 Z-0.125000 I-47.833273 J17.718329
G01 X15.718995 Y39.418525 Z-0.125000
G01 X21.750687 Y39.418525 Z-0.125000
G01 X27.782379 Y39.418525 Z-0.125000
G01 X27.980524 Y38.892642 Z-0.125000
G02 X29.540438 Y34.734834 Z-0.125000 I-1474.996867 J-555.756596
G02 X30.585680 Y31.918982 Z-0.125000 I-675.365959 J-252.297128
G03 X30.755221 Y31.462022 Z-0.125000 I117.813766 J43.451349
G03 X32.377748 Y27.117445 Z-0.125000 I10733.805582 J4006.172359
G02 X34.000130 Y22.772816 Z-0.125000 I-9206.615106 J-3440.429557
G02 X34.331568 Y21.881483 Z-0.125000 I-387.797844 J-144.708183
G03 X34.663115 Y20.990193 Z-0.125000 I350.719270 J129.955249
G03 X35.082944 Y19.869411 Z-0.125000 I554.667562 J207.131485
G02 X35.503160 Y18.748774 Z-0.125000 I-841.589831 J-316.217733
G02 X35.681888 Y18.268898 Z-0.125000 I-154.095776 J-57.665753
G03 X36.085338 Y17.186192 Z-0.125000 I315.661569 J117.008726
G03 X36.375630 Y16.416877 Z-0.125000 I159.662203 J59.807301
G02 X36.635047 Y15.730462 Z-0.125000 I-181.367794 J-68.936616
G02 X36.702118 Y15.548028 Z-0.125000 I-12.742940 J-4.788425
G03 X36.768950 Y15.365504 Z-0.125000 I15.613918 J5.613648
G03 X37.247662 Y14.084702 Z-0.125000 I772.189479 J287.883069
G02 X37.726961 Y12.804114 Z-0.125000 I-1712.297443 J-641.610293
G02 X37.854570 Y12.461325 Z-0.125000 I-122.863187 J-45.932935
G03 X37.982046 Y12.118488 Z-0.125000 I168.809801 J62.572850
G03 X38.212745 Y11.501018 Z-0.125000 I552.716899 J206.154258
G02 X38.443183 Y10.883453 Z-0.125000 I-315.782968 J-118.182958
G02 X38.621041 Y10.403524 Z-0.125000 I-190.261389 J-70.782304
G03 X38.798713 Y9.923525 Z-0.125000 I275.655454 J101.761383
G03 X38.935023 Y9.557539 Z-0.125000 I159.899597 J59.345442
G03 X39.071765 Y9.191713 Z-0.125000 I4587.298284 J1714.831335
G03 X39.294018 Y8.597232 Z-0.125000 I13490.321379 J5041.274805
G02 X39.515650 Y8.002519 Z-0.125000 I-278.119226 J-103.985312
G02 X39.820589 Y7.179635 Z-0.125000 I-532.270365 J-197.713462
G03 X40.126849 Y6.357284 Z-0.125000 I172.145837 J63.642276
G03 X40.169056 Y6.250758 Z-0.125000 I2.924403 J1.097073
G02 X40.211198 Y6.144206 Z-0.125000 I-2.792172 J-1.165925
G02 X40.374154 Y5.702011 Z-0.125000 I-47.829321 J-17.877028
G03 X40.537212 Y5.259833 Z-0.125000 I46.115898 J16.754619
G03 X40.599835 Y5.098969 Z-0.125000 I6.148993 J2.301120
G02 X40.662817 Y4.938230 Z-0.125000 I-7.304531 J-2.954838
G02 X40.911994 Y4.275848 Z-0.125000 I-123.432036 J-46.811076
G03 X41.159868 Y3.612957 Z-0.125000 I469.486853 J175.177008
G03 X41.190520 Y3.532578 Z-0.125000 I6.968265 J2.611247
G01 X41.163346 Y3.492372 Z-0.125000
G02 X35.444176 Y3.463988 Z-0.125000 I-4.894732 J410.051331
G01 X29.666715 Y3.475598 Z-0.125000
G01 X29.517798 Y3.978616 Z-0.125000
G01 X29.091446 Y5.419077 Z-0.125000
G01 X28.367292 Y7.865575 Z-0.125000
G01 X27.920573 Y9.374629 Z-0.125000
G01 X21.599119 Y9.386219 Z-0.125000
G03 X15.308963 Y9.366402 Z-0.125000 I-1.157309 J-630.960704
G01 X15.277665 Y9.334849 Z-0.125000
G02 X15.269619 Y9.273055 Z-0.125000 I-0.241322 J-0.000000
G02 X15.123183 Y8.751645 Z-0.125000 I-17.633740 J4.671109
G03 X14.970031 Y8.231013 Z-0.125000 I102.569386 J-30.455188
G03 X14.778360 Y7.568331 Z-0.125000 I164.991541 J-48.080474
G02 X14.585574 Y6.905991 Z-0.125000 I-89.721013 J25.755723
G02 X14.481497 Y6.562295 Z-0.125000 I-24.252524 J7.156455
G03 X14.377728 Y6.218504 Z-0.125000 I21.391976 J-6.644450
G03 X14.072676 Y5.167562 Z-0.125000 I200.155914 J-58.668079
G02 X13.769396 Y4.116082 Z-0.125000 I-565.180329 J162.446223
G02 X13.672417 Y3.784691 Z-0.125000 I-56.153763 J16.253116
G01 X13.574457 Y3.453584 Z-0.125000
G01 X7.953884 Y3.453172 Z-0.125000
G02 X2.351524 Y3.470941 Z-0.125000 I-0.070191 J861.044669
G01 X2.333310 Y3.489272 Z-0.125000
G01 X2.333314 Y3.489267 Z-0.125000
G00 Z0.500000
M5
G4 P1.0
G1 F500.0
(Change tool to Laser Engraver)

G00 Z0.500000
G00 X13.182838 Y5.201859
M3 S90.0
G4 P1.0
G01 Z-0.125000 F500.0(Penetrate)
G02 X13.426136 Y6.036025 Z-0.125000 I264.552905 J-76.708722 F500.000000
G02 X13.575252 Y6.539430 Z-0.125000 I96.580886 J-28.334804
G03 X13.724559 Y7.042777 Z-0.125000 I-113.959742 J34.077530
G03 X13.931794 Y7.751247 Z-0.125000 I-223.776487 J65.841516
G02 X14.580229 Y9.798489 Z-0.125000 I43.415101 J-12.624809
G02 X14.701530 Y9.994904 Z-0.125000 I0.494215 J-0.169551
G02 X14.875294 Y10.136065 Z-0.125000 I0.711080 J-0.697786
G02 X15.040968 Y10.212308 Z-0.125000 I0.356643 J-0.556850
G02 X15.223950 Y10.239995 Z-0.125000 I0.187772 J-0.622480
G02 X21.641563 Y10.260928 Z-0.125000 I5.759128 J-781.849405
G02 X28.061441 Y10.241407 Z-0.125000 I-1.244277 J-1464.852947
G02 X28.188566 Y10.226628 Z-0.125000 I-0.003036 J-0.580265
G02 X28.302813 Y10.177156 Z-0.125000 I-0.076983 J-0.334431
G02 X28.493359 Y10.022080 Z-0.125000 I-0.744419 J-1.109289
G02 X28.649903 Y9.782649 Z-0.125000 I-0.465941 J-0.475532
G02 X29.129180 Y8.345720 Z-0.125000 I-17.453447 J-6.619858
G03 X29.228929 Y8.002936 Z-0.125000 I94.519024 J27.318824
G03 X29.356932 Y7.568329 Z-0.125000 I151.372165 J44.346853
G02 X29.485137 Y7.133778 Z-0.125000 I-219.253918 J-64.922583
G02 X29.645946 Y6.585157 Z-0.125000 I-355.084484 J-104.378181
G03 X30.016163 Y5.326343 Z-0.125000 I375.319179 J109.697447
G03 X30.261666 Y4.504491 Z-0.125000 I160.103425 J47.378389
G01 X30.296136 Y4.390169 Z-0.125000
G01 X35.117356 Y4.378529 Z-0.125000
G01 X39.938576 Y4.366889 Z-0.125000
G01 X39.782704 Y4.790089 Z-0.125000
G03 X39.625979 Y5.212971 Z-0.125000 I-104.868486 J-38.625087
G03 X39.462886 Y5.647714 Z-0.125000 I-110.788750 J-41.314133
G02 X39.300161 Y6.082591 Z-0.125000 I77.484912 J29.241609
G02 X39.191447 Y6.379377 Z-0.125000 I35.905183 J13.320573
G03 X39.082766 Y6.676173 Z-0.125000 I-36.989525 J-13.376605
G03 X38.996481 Y6.905259 Z-0.125000 I-22.160854 J-8.216033
G02 X38.909976 Y7.134268 Z-0.125000 I27.060238 J10.352416
G02 X38.672477 Y7.774109 Z-0.125000 I210.521182 J78.506343
G03 X38.434332 Y8.413686 Z-0.125000 I-126.015764 J-46.557545
G03 X38.391153 Y8.523822 Z-0.125000 I-3.779589 J-1.418263
G02 X38.316278 Y8.715313 Z-0.125000 I6.131488 J2.507855
G02 X35.692453 Y15.754617 Z-0.125000 I8269.038058 J3086.203991
G03 X34.949598 Y17.743824 Z-0.125000 I-953.941334 J-355.109263
G03 X34.904404 Y17.858147 Z-0.125000 I-3.195207 J-1.197026
G02 X34.859342 Y17.972516 Z-0.125000 I2.962236 J1.233197
G02 X34.419837 Y19.160610 Z-0.125000 I319.546119 J118.883270
G03 X33.980683 Y20.348869 Z-0.125000 I-382.726868 J-140.772065
G03 X33.876439 Y20.623936 Z-0.125000 I-20.608533 J-7.652859
G02 X33.661519 Y21.190267 Z-0.125000 I45.270947 J17.504018
G02 X32.488642 Y24.350843 Z-0.125000 I1408.594987 J524.522061
G03 X31.455775 Y27.127624 Z-0.125000 I-737.025824 J-272.567590
G03 X30.948942 Y28.466446 Z-0.125000 I-171.829882 J-64.283755
G02 X30.819178 Y28.810013 Z-0.125000 I36.856620 J14.116856
G02 X30.582825 Y29.449618 Z-0.125000 I127.184940 J47.362157
G03 X30.346826 Y30.089357 Z-0.125000 I-163.845001 J-60.078780
G03 X30.243407 Y30.364196 Z-0.125000 I-30.340717 J-11.260037
G02 X29.927042 Y31.200272 Z-0.125000 I154.916591 J59.097229
G02 X29.719944 Y31.758928 Z-0.125000 I68.961018 J25.882058
G03 X29.098455 Y33.439926 Z-0.125000 I-265.062564 J-97.042103
G03 X28.721238 Y34.434070 Z-0.125000 I-93.049271 J-34.737843
G02 X28.592718 Y34.772669 Z-0.125000 I32.197380 J12.414663
G02 X27.901248 Y36.629059 Z-0.125000 I968.442161 J361.783243
G03 X27.663431 Y37.269245 Z-0.125000 I-4132.577358 J-1534.914701
G03 X27.484955 Y37.749417 Z-0.125000 I-2239.645319 J-832.143289
G02 X27.307014 Y38.229785 Z-0.125000 I197.137441 J73.298086
G02 X27.248691 Y38.389622 Z-0.125000 I21.809609 J8.048668
G01 X27.190951 Y38.549673 Z-0.125000
G01 X21.767685 Y38.561293 Z-0.125000
G01 X16.344419 Y38.572913 Z-0.125000
G01 X16.263039 Y38.355516 Z-0.125000
G02 X16.181615 Y38.138136 Z-0.125000 I-555.128934 J207.810717
G02 X16.044444 Y37.772289 Z-0.125000 I-1428.395206 J535.356202
G03 X15.908003 Y37.406168 Z-0.125000 I86.246478 J-32.349717
G03 X15.731215 Y36.926304 Z-0.125000 I147.970181 J-54.786507
G02 X15.554086 Y36.446567 Z-0.125000 I-103.490046 J37.938055
G02 X15.459133 Y36.194641 Z-0.125000 I-28.479797 J10.590456
G03 X15.363946 Y35.942800 Z-0.125000 I35.794499 J-13.672965
G03 X15.236824 Y35.600165 Z-0.125000 I66.246267 J-24.773118
G02 X14.543633 Y33.730213 Z-0.125000 I-404.830982 J149.007418
G02 X14.434439 Y33.450905 Z-0.125000 I-9.141397 J3.412772
G03 X14.227028 Y32.921755 Z-0.125000 I18.193871 J-7.436683
G03 X13.121262 Y29.952643 Z-0.125000 I571.075856 J-214.372297
G02 X12.968696 Y29.541273 Z-0.125000 I-165.511171 J61.149592
G02 X12.780779 Y29.038065 Z-0.125000 I-249.160583 J92.759400
G03 X12.593078 Y28.534778 Z-0.125000 I175.153125 J-65.609935
G03 X12.415712 Y28.054893 Z-0.125000 I159.196977 J-59.112192
G02 X12.237314 Y27.575398 Z-0.125000 I-65.292857 J24.019543
G02 X11.959779 Y26.843076 Z-0.125000 I-153.187442 J57.636124
G03 X11.683495 Y26.110336 Z-0.125000 I89.734294 J-34.253269
G03 X11.619184 Y25.928498 Z-0.125000 I5.460558 J-2.033548
G02 X11.555216 Y25.746531 Z-0.125000 I-6.248779 J2.094438
G02 X11.358299 Y25.219700 Z-0.125000 I-52.548437 J19.341171
G03 X11.160293 Y24.693227 Z-0.125000 I87.993978 J-33.394913
G03 X10.651022 Y23.321949 Z-0.125000 I596.644097 J-222.364429
G02 X10.141312 Y21.950877 Z-0.125000 I-463.464307 J171.517426
G02 X10.102132 Y21.852154 Z-0.125000 I-2.439812 J0.911138
G03 X9.890162 Y21.318276 Z-0.125000 I13.075891 J-5.500644
G03 X7.720110 Y15.479439 Z-0.125000 I1564.380857 J-584.737712
G02 X7.156429 Y13.963012 Z-0.125000 I-395.924372 J146.308685
G02 X6.078702 Y11.089463 Z-0.125000 I-1423.056203 J532.079815
G03 X5.641617 Y9.922782 Z-0.125000 I425.207250 J-159.964679
G03 X5.490118 Y9.511815 Z-0.125000 I52.621033 J-19.631683
G02 X5.338660 Y9.100832 Z-0.125000 I-54.160852 J19.726200
G02 X4.739925 Y7.499742 Z-0.125000 I-823.034364 J306.864999
G03 X3.615796 Y4.471936 Z-0.125000 I453.798301 J-170.203588
G03 X3.605035 Y4.411453 Z-0.125000 I0.164588 J-0.060483
G01 X3.626999 Y4.389280 Z-0.125000
G03 X8.272942 Y4.367313 Z-0.125000 I4.645943 J491.284308
G01 X12.940849 Y4.367313 Z-0.125000
G01 X13.182838 Y5.201859 Z-0.125000
G00 Z0.500000
M5
G4 P1.0
G1 F500.0
(Change tool to Laser Engraver)

G00 Z0.500000
G00 X17.594022 Y16.311746
M3 S90.0
G4 P1.0
G01 Z-0.125000 F500.0(Penetrate)
G02 X17.268006 Y16.443365 Z-0.125000 I0.228826 J1.036366 F500.000000
G02 X17.015508 Y16.666526 Z-0.125000 I0.509693 J0.831126
G02 X16.970184 Y16.742706 Z-0.125000 I0.254416 J0.202942
G02 X16.891219 Y16.960418 Z-0.125000 I2.045924 J0.865237
G02 X16.862731 Y17.184796 Z-0.125000 I0.641194 J0.195407
G02 X16.916869 Y17.553496 Z-0.125000 I1.818238 J-0.078657
G02 X17.016146 Y17.921513 Z-0.125000 I12.223435 J-3.100020
G02 X17.094954 Y18.176043 Z-0.125000 I5.915074 J-1.691969
G03 X17.176233 Y18.429919 Z-0.125000 I-10.480776 J3.495400
G03 X17.460275 Y19.366393 Z-0.125000 I-142.313456 J43.676395
G02 X18.359688 Y22.350173 Z-0.125000 I952.562205 J-285.507209
G02 X18.569272 Y23.024706 Z-0.125000 I48.880513 J-14.817841
G03 X18.676366 Y23.368290 Z-0.125000 I-28.585987 J9.098682
G03 X18.722752 Y23.527724 Z-0.125000 I-6.093065 J1.859172
G02 X18.831988 Y23.904352 Z-0.125000 I15.502182 J-4.292058
G02 X19.547998 Y26.248595 Z-0.125000 I600.813770 J-182.227038
G03 X19.784901 Y27.026637 Z-0.125000 I-137.897887 J42.413100
G03 X19.865010 Y27.300361 Z-0.125000 I-16.989106 J5.120668
G02 X20.502629 Y29.466515 Z-0.125000 I113.180928 J-32.138489
G02 X20.801551 Y30.372872 Z-0.125000 I20.104302 J-6.128049
G02 X21.217245 Y30.860837 Z-0.125000 I0.847661 J-0.301071
G02 X21.826699 Y30.934102 Z-0.125000 I0.396111 J-0.723540
G02 X22.249337 Y30.666139 Z-0.125000 I-0.216575 J-0.808868
G02 X22.579825 Y30.044096 Z-0.125000 I-1.266437 J-1.071664
G03 X22.689745 Y29.668863 Z-0.125000 I17.918022 J5.045136
G03 X23.909078 Y25.676984 Z-0.125000 I2026.353611 J616.774618
G02 X24.042028 Y25.242493 Z-0.125000 I-441.229265 J-135.249189
G02 X24.244308 Y24.579490 Z-0.125000 I-1022.482550 J-312.318749
G03 X24.568016 Y23.519118 Z-0.125000 I1080.874560 J329.387755
G03 X25.111349 Y21.744297 Z-0.125000 I3029.671667 J926.511960
G02 X25.439776 Y20.669394 Z-0.125000 I-644.361588 J-197.466375
G02 X25.654632 Y19.960869 Z-0.125000 I-279.316082 J-85.087885
G03 X25.870462 Y19.252648 Z-0.125000 I133.956026 J40.436035
G03 X26.020405 Y18.771917 Z-0.125000 I61.868127 J19.033305
G02 X26.414608 Y17.347262 Z-0.125000 I-19.425711 J-6.141980
G02 X26.426739 Y17.064694 Z-0.125000 I-0.725573 J-0.172693
G02 X26.169908 Y16.584883 Z-0.125000 I-0.798887 J0.118981
G02 X25.587732 Y16.305177 Z-0.125000 I-0.763493 J0.843406
G02 X20.998274 Y15.938911 Z-0.125000 I-4.566764 J28.286392
G02 X17.594027 Y16.311777 Z-0.125000 I0.012547 J15.841301
G01 X17.594022 Y16.311746 Z-0.125000
G00 Z0.500000
M5
G4 P1.0
G1 F500.0
(Change tool to Laser Engraver)

G00 Z0.500000
G00 X25.587727 Y17.190660
M3 S90.0
G4 P1.0
G01 Z-0.125000 F500.0(Penetrate)
G03 X25.578998 Y17.249405 Z-0.125000 I-0.202026 J0.000000 F500.000000
G03 X24.453992 Y20.921176 Z-0.125000 I-808.284474 J-245.644594
G02 X24.320426 Y21.355790 Z-0.125000 I153.232017 J47.329063
G02 X23.775845 Y23.139029 Z-0.125000 I2564.506104 J784.146788
G03 X23.231458 Y24.922326 Z-0.125000 I-3739.240875 J-1140.517139
G03 X22.497445 Y27.323225 Z-0.125000 I-6780.091649 J-2071.491400
G02 X21.763330 Y29.724091 Z-0.125000 I8987.673162 J2749.472205
G02 X21.711301 Y29.895477 Z-0.125000 I45.671013 J13.958209
G03 X21.652060 Y30.056795 Z-0.125000 I-1.393173 J-0.420079
G01 X21.636591 Y30.066897 Z-0.125000
G01 X21.621486 Y30.056223 Z-0.125000
G03 X21.485432 Y29.643904 Z-0.125000 I8.350271 J-2.983962
G03 X21.357314 Y29.220963 Z-0.125000 I1959.880529 J-593.932365
G03 X21.198119 Y28.695093 Z-0.125000 I3734.042419 J-1130.649349
G02 X21.037715 Y28.169593 Z-0.125000 I-111.294195 J33.684237
G02 X20.909545 Y27.757650 Z-0.125000 I-68.228469 J21.002414
G03 X20.781891 Y27.345548 Z-0.125000 I48.092664 J-15.123105
G03 X20.567745 Y26.637291 Z-0.125000 I141.993451 J-43.319211
G02 X20.354490 Y25.928755 Z-0.125000 I-288.698632 J86.506143
G02 X19.994019 Y24.739541 Z-0.125000 I-813.874421 J246.049826
G03 X19.633171 Y23.550440 Z-0.125000 I1433.948291 J-435.800224
G03 X19.502119 Y23.116164 Z-0.125000 I191.003158 J-57.875956
G02 X19.371084 Y22.681883 Z-0.125000 I-200.251670 J60.184544
G02 X19.003449 Y21.469923 Z-0.125000 I-1545.389106 J468.115851
G03 X18.635696 Y20.257998 Z-0.125000 I2048.489458 J-622.265595
G03 X18.525230 Y19.892275 Z-0.125000 I186.150680 J-56.426333
G02 X18.414536 Y19.526621 Z-0.125000 I-114.257440 J34.389614
G02 X18.072715 Y18.406085 Z-0.125000 I-1070.591767 J325.972431
G03 X17.738274 Y17.284535 Z-0.125000 I82.211526 J-25.125736
G03 X17.730294 Y17.228566 Z-0.125000 I0.192642 J-0.056020
G01 X17.758661 Y17.199777 Z-0.125000
G03 X21.659005 Y17.171406 Z-0.125000 I3.900344 J268.092061
G01 X25.587729 Y17.190666 Z-0.125000
G01 X25.587727 Y17.190660 Z-0.125000
G00 Z0.500000
M5
G4 P1.0
G1 F500.0
(End cutting path id: path266)


(Footer)
M5
G00 X0.0000 Y0.0000
M2
(Using default footer. To add your own footer create file "footer" in the output dir.)
(end)
%